; Generated with:
; "BEC Gcode generator"
; by ATOM 3D Printer
;
;
;
G28; home all axes
G21; Set units to millimeters
G90; Use absolute coordinates
G92; Coordinate Offset
G0 Z8.0 F10000
G0 X0.5 Y-19.8 F3000
M03; Laser ON
G1 X1.5 Y-19.8 F200
M05; Laser OFF
G0 X11.1 Y-19.6 F3000
M03; Laser ON
G1 X10.3 Y-19.6 F200
M05; Laser OFF
G0 X8.9 Y-19.6 F3000
M03; Laser ON
G1 X8.1 Y-19.6 F200
M05; Laser OFF
G0 X6.7 Y-19.6 F3000
M03; Laser ON
G1 X5.7 Y-19.6 F200
M05; Laser OFF
G0 X2.1 Y-19.6 F3000
M03; Laser ON
G1 X-0.1 Y-19.6 F200
M05; Laser OFF
G0 X-4.9 Y-19.6 F3000
M03; Laser ON
G1 X-5.7 Y-19.6 F200
M05; Laser OFF
G0 X-8.3 Y-19.6 F3000
M03; Laser ON
G1 X-9.3 Y-19.6 F200
M05; Laser OFF
G0 X-12.1 Y-19.6 F3000
M03; Laser ON
G1 X-13.1 Y-19.6 F200
M05; Laser OFF
G0 X-12.9 Y-19.4 F3000
M03; Laser ON
G1 X-12.1 Y-19.4 F200
M05; Laser OFF
G0 X-9.3 Y-19.4 F3000
M03; Laser ON
G1 X-8.5 Y-19.4 F200
M05; Laser OFF
G0 X-5.7 Y-19.4 F3000
M03; Laser ON
G1 X-4.9 Y-19.4 F200
M05; Laser OFF
G0 X-0.3 Y-19.4 F3000
M03; Laser ON
G1 X2.5 Y-19.4 F200
M05; Laser OFF
G0 X5.7 Y-19.4 F3000
M03; Laser ON
G1 X6.7 Y-19.4 F200
M05; Laser OFF
G0 X7.9 Y-19.4 F3000
M03; Laser ON
G1 X8.9 Y-19.4 F200
M05; Laser OFF
G0 X10.3 Y-19.4 F3000
M03; Laser ON
G1 X11.1 Y-19.4 F200
M05; Laser OFF
G0 X11.1 Y-19.2 F3000
M03; Laser ON
G1 X10.3 Y-19.2 F200
M05; Laser OFF
G0 X8.9 Y-19.2 F3000
M03; Laser ON
G1 X7.9 Y-19.2 F200
M05; Laser OFF
G0 X6.7 Y-19.2 F3000
M03; Laser ON
G1 X5.7 Y-19.2 F200
M05; Laser OFF
G0 X2.7 Y-19.2 F3000
M03; Laser ON
G1 X-0.7 Y-19.2 F200
M05; Laser OFF
G0 X-4.9 Y-19.2 F3000
M03; Laser ON
G1 X-5.7 Y-19.2 F200
M05; Laser OFF
G0 X-8.5 Y-19.2 F3000
M03; Laser ON
G1 X-9.5 Y-19.2 F200
M05; Laser OFF
G0 X-11.9 Y-19.2 F3000
M03; Laser ON
G1 X-12.9 Y-19.2 F200
M05; Laser OFF
G0 X-12.9 Y-19.0 F3000
M03; Laser ON
G1 X-11.9 Y-19.0 F200
M05; Laser OFF
G0 X-9.5 Y-19.0 F3000
M03; Laser ON
G1 X-8.5 Y-19.0 F200
M05; Laser OFF
G0 X-5.7 Y-19.0 F3000
M03; Laser ON
G1 X-4.9 Y-19.0 F200
M05; Laser OFF
G0 X-0.7 Y-19.0 F3000
M03; Laser ON
G1 X2.9 Y-19.0 F200
M05; Laser OFF
G0 X5.7 Y-19.0 F3000
M03; Laser ON
G1 X6.7 Y-19.0 F200
M05; Laser OFF
G0 X7.9 Y-19.0 F3000
M03; Laser ON
G1 X9.1 Y-19.0 F200
M05; Laser OFF
G0 X10.3 Y-19.0 F3000
M03; Laser ON
G1 X11.1 Y-19.0 F200
M05; Laser OFF
G0 X11.1 Y-18.8 F3000
M03; Laser ON
G1 X10.3 Y-18.8 F200
M05; Laser OFF
G0 X9.1 Y-18.8 F3000
M03; Laser ON
G1 X7.7 Y-18.8 F200
M05; Laser OFF
G0 X6.7 Y-18.8 F3000
M03; Laser ON
G1 X5.7 Y-18.8 F200
M05; Laser OFF
G0 X3.1 Y-18.8 F3000
M03; Laser ON
G1 X1.7 Y-18.8 F200
M05; Laser OFF
G0 X0.3 Y-18.8 F3000
M03; Laser ON
G1 X-0.9 Y-18.8 F200
M05; Laser OFF
G0 X-4.9 Y-18.8 F3000
M03; Laser ON
G1 X-5.7 Y-18.8 F200
M05; Laser OFF
G0 X-8.7 Y-18.8 F3000
M03; Laser ON
G1 X-9.7 Y-18.8 F200
M05; Laser OFF
G0 X-11.9 Y-18.8 F3000
M03; Laser ON
G1 X-12.7 Y-18.8 F200
M05; Laser OFF
G0 X-12.7 Y-18.6 F3000
M03; Laser ON
G1 X-8.7 Y-18.6 F200
M05; Laser OFF
G0 X-5.7 Y-18.6 F3000
M03; Laser ON
G1 X-4.9 Y-18.6 F200
M05; Laser OFF
G0 X-1.1 Y-18.6 F3000
M03; Laser ON
G1 X0.1 Y-18.6 F200
M05; Laser OFF
G0 X2.1 Y-18.6 F3000
M03; Laser ON
G1 X3.1 Y-18.6 F200
M05; Laser OFF
G0 X5.7 Y-18.6 F3000
M03; Laser ON
G1 X6.7 Y-18.6 F200
M05; Laser OFF
G0 X7.7 Y-18.6 F3000
M03; Laser ON
G1 X9.1 Y-18.6 F200
M05; Laser OFF
G0 X10.3 Y-18.6 F3000
M03; Laser ON
G1 X11.1 Y-18.6 F200
M05; Laser OFF
G0 X11.1 Y-18.4 F3000
M03; Laser ON
G1 X10.3 Y-18.4 F200
M05; Laser OFF
G0 X9.3 Y-18.4 F3000
M03; Laser ON
G1 X7.7 Y-18.4 F200
M05; Laser OFF
G0 X6.7 Y-18.4 F3000
M03; Laser ON
G1 X5.7 Y-18.4 F200
M05; Laser OFF
G0 X3.3 Y-18.4 F3000
M03; Laser ON
G1 X2.1 Y-18.4 F200
M05; Laser OFF
G0 X-0.1 Y-18.4 F3000
M03; Laser ON
G1 X-1.1 Y-18.4 F200
M05; Laser OFF
G0 X-4.9 Y-18.4 F3000
M03; Laser ON
G1 X-5.7 Y-18.4 F200
M05; Laser OFF
G0 X-8.9 Y-18.4 F3000
M03; Laser ON
G1 X-12.5 Y-18.4 F200
M05; Laser OFF
G0 X-12.5 Y-18.2 F3000
M03; Laser ON
G1 X-8.9 Y-18.2 F200
M05; Laser OFF
G0 X-5.7 Y-18.2 F3000
M03; Laser ON
G1 X-4.9 Y-18.2 F200
M05; Laser OFF
G0 X-1.3 Y-18.2 F3000
M03; Laser ON
G1 X-0.3 Y-18.2 F200
M05; Laser OFF
G0 X2.3 Y-18.2 F3000
M03; Laser ON
G1 X3.3 Y-18.2 F200
M05; Laser OFF
G0 X5.7 Y-18.2 F3000
M03; Laser ON
G1 X6.7 Y-18.2 F200
M05; Laser OFF
G0 X7.5 Y-18.2 F3000
M03; Laser ON
G1 X9.3 Y-18.2 F200
M05; Laser OFF
G0 X10.3 Y-18.2 F3000
M03; Laser ON
G1 X11.1 Y-18.2 F200
M05; Laser OFF
G0 X11.1 Y-18.0 F3000
M03; Laser ON
G1 X10.3 Y-18.0 F200
M05; Laser OFF
G0 X9.3 Y-18.0 F3000
M03; Laser ON
G1 X7.5 Y-18.0 F200
M05; Laser OFF
G0 X6.7 Y-18.0 F3000
M03; Laser ON
G1 X5.7 Y-18.0 F200
M05; Laser OFF
G0 X3.3 Y-18.0 F3000
M03; Laser ON
G1 X2.3 Y-18.0 F200
M05; Laser OFF
G0 X-0.3 Y-18.0 F3000
M03; Laser ON
G1 X-1.3 Y-18.0 F200
M05; Laser OFF
G0 X-4.9 Y-18.0 F3000
M03; Laser ON
G1 X-5.7 Y-18.0 F200
M05; Laser OFF
G0 X-8.9 Y-18.0 F3000
M03; Laser ON
G1 X-12.5 Y-18.0 F200
M05; Laser OFF
G0 X-12.3 Y-17.8 F3000
M03; Laser ON
G1 X-9.1 Y-17.8 F200
M05; Laser OFF
G0 X-5.7 Y-17.8 F3000
M03; Laser ON
G1 X-4.9 Y-17.8 F200
M05; Laser OFF
G0 X-1.3 Y-17.8 F3000
M03; Laser ON
G1 X-0.3 Y-17.8 F200
M05; Laser OFF
G0 X2.5 Y-17.8 F3000
M03; Laser ON
G1 X3.3 Y-17.8 F200
M05; Laser OFF
G0 X5.7 Y-17.8 F3000
M03; Laser ON
G1 X6.7 Y-17.8 F200
M05; Laser OFF
G0 X7.5 Y-17.8 F3000
M03; Laser ON
G1 X8.3 Y-17.8 F200
M05; Laser OFF
G0 X8.7 Y-17.8 F3000
M03; Laser ON
G1 X9.5 Y-17.8 F200
M05; Laser OFF
G0 X10.3 Y-17.8 F3000
M03; Laser ON
G1 X11.1 Y-17.8 F200
M05; Laser OFF
G0 X11.1 Y-17.6 F3000
M03; Laser ON
G1 X10.3 Y-17.6 F200
M05; Laser OFF
G0 X9.5 Y-17.6 F3000
M03; Laser ON
G1 X8.7 Y-17.6 F200
M05; Laser OFF
G0 X8.1 Y-17.6 F3000
M03; Laser ON
G1 X7.3 Y-17.6 F200
M05; Laser OFF
G0 X6.7 Y-17.6 F3000
M03; Laser ON
G1 X5.7 Y-17.6 F200
M05; Laser OFF
G0 X3.5 Y-17.6 F3000
M03; Laser ON
G1 X2.5 Y-17.6 F200
M05; Laser OFF
G0 X-0.5 Y-17.6 F3000
M03; Laser ON
G1 X-1.3 Y-17.6 F200
M05; Laser OFF
G0 X-4.9 Y-17.6 F3000
M03; Laser ON
G1 X-5.7 Y-17.6 F200
M05; Laser OFF
G0 X-9.1 Y-17.6 F3000
M03; Laser ON
G1 X-10.1 Y-17.6 F200
M05; Laser OFF
G0 X-11.3 Y-17.6 F3000
M03; Laser ON
G1 X-12.3 Y-17.6 F200
M05; Laser OFF
G0 X-12.1 Y-17.4 F3000
M03; Laser ON
G1 X-11.3 Y-17.4 F200
M05; Laser OFF
G0 X-10.1 Y-17.4 F3000
M03; Laser ON
G1 X-9.1 Y-17.4 F200
M05; Laser OFF
G0 X-5.7 Y-17.4 F3000
M03; Laser ON
G1 X-4.9 Y-17.4 F200
M05; Laser OFF
G0 X-1.3 Y-17.4 F3000
M03; Laser ON
G1 X-0.5 Y-17.4 F200
M05; Laser OFF
G0 X2.5 Y-17.4 F3000
M03; Laser ON
G1 X3.5 Y-17.4 F200
M05; Laser OFF
G0 X5.7 Y-17.4 F3000
M03; Laser ON
G1 X6.7 Y-17.4 F200
M05; Laser OFF
G0 X7.3 Y-17.4 F3000
M03; Laser ON
G1 X8.1 Y-17.4 F200
M05; Laser OFF
G0 X8.9 Y-17.4 F3000
M03; Laser ON
G1 X9.5 Y-17.4 F200
M05; Laser OFF
G0 X10.3 Y-17.4 F3000
M03; Laser ON
G1 X11.1 Y-17.4 F200
M05; Laser OFF
G0 X11.1 Y-17.2 F3000
M03; Laser ON
G1 X10.3 Y-17.2 F200
M05; Laser OFF
G0 X9.7 Y-17.2 F3000
M03; Laser ON
G1 X8.9 Y-17.2 F200
M05; Laser OFF
G0 X8.1 Y-17.2 F3000
M03; Laser ON
G1 X7.3 Y-17.2 F200
M05; Laser OFF
G0 X6.7 Y-17.2 F3000
M03; Laser ON
G1 X5.7 Y-17.2 F200
M05; Laser OFF
G0 X3.5 Y-17.2 F3000
M03; Laser ON
G1 X2.5 Y-17.2 F200
M05; Laser OFF
G0 X-0.5 Y-17.2 F3000
M03; Laser ON
G1 X-1.3 Y-17.2 F200
M05; Laser OFF
G0 X-4.9 Y-17.2 F3000
M03; Laser ON
G1 X-5.7 Y-17.2 F200
M05; Laser OFF
G0 X-9.3 Y-17.2 F3000
M03; Laser ON
G1 X-10.1 Y-17.2 F200
M05; Laser OFF
G0 X-11.3 Y-17.2 F3000
M03; Laser ON
G1 X-12.1 Y-17.2 F200
M05; Laser OFF
G0 X-12.1 Y-17.0 F3000
M03; Laser ON
G1 X-11.1 Y-17.0 F200
M05; Laser OFF
G0 X-10.3 Y-17.0 F3000
M03; Laser ON
G1 X-9.3 Y-17.0 F200
M05; Laser OFF
G0 X-5.7 Y-17.0 F3000
M03; Laser ON
G1 X-4.9 Y-17.0 F200
M05; Laser OFF
G0 X-1.3 Y-17.0 F3000
M03; Laser ON
G1 X-0.5 Y-17.0 F200
M05; Laser OFF
G0 X2.5 Y-17.0 F3000
M03; Laser ON
G1 X3.5 Y-17.0 F200
M05; Laser OFF
G0 X5.7 Y-17.0 F3000
M03; Laser ON
G1 X6.7 Y-17.0 F200
M05; Laser OFF
G0 X7.1 Y-17.0 F3000
M03; Laser ON
G1 X7.9 Y-17.0 F200
M05; Laser OFF
G0 X8.9 Y-17.0 F3000
M03; Laser ON
G1 X9.7 Y-17.0 F200
M05; Laser OFF
G0 X10.3 Y-17.0 F3000
M03; Laser ON
G1 X11.1 Y-17.0 F200
M05; Laser OFF
G0 X11.1 Y-16.8 F3000
M03; Laser ON
G1 X10.3 Y-16.8 F200
M05; Laser OFF
G0 X9.7 Y-16.8 F3000
M03; Laser ON
G1 X9.1 Y-16.8 F200
M05; Laser OFF
G0 X7.9 Y-16.8 F3000
M03; Laser ON
G1 X7.1 Y-16.8 F200
M05; Laser OFF
G0 X6.7 Y-16.8 F3000
M03; Laser ON
G1 X5.7 Y-16.8 F200
M05; Laser OFF
G0 X3.5 Y-16.8 F3000
M03; Laser ON
G1 X2.5 Y-16.8 F200
M05; Laser OFF
G0 X-0.5 Y-16.8 F3000
M03; Laser ON
G1 X-1.3 Y-16.8 F200
M05; Laser OFF
G0 X-4.9 Y-16.8 F3000
M03; Laser ON
G1 X-5.7 Y-16.8 F200
M05; Laser OFF
G0 X-9.5 Y-16.8 F3000
M03; Laser ON
G1 X-10.3 Y-16.8 F200
M05; Laser OFF
G0 X-11.1 Y-16.8 F3000
M03; Laser ON
G1 X-11.9 Y-16.8 F200
M05; Laser OFF
G0 X-11.9 Y-16.6 F3000
M03; Laser ON
G1 X-11.1 Y-16.6 F200
M05; Laser OFF
G0 X-10.3 Y-16.6 F3000
M03; Laser ON
G1 X-9.5 Y-16.6 F200
M05; Laser OFF
G0 X-5.7 Y-16.6 F3000
M03; Laser ON
G1 X-4.9 Y-16.6 F200
M05; Laser OFF
G0 X-1.3 Y-16.6 F3000
M03; Laser ON
G1 X-0.3 Y-16.6 F200
M05; Laser OFF
G0 X2.5 Y-16.6 F3000
M03; Laser ON
G1 X3.3 Y-16.6 F200
M05; Laser OFF
G0 X5.7 Y-16.6 F3000
M03; Laser ON
G1 X6.7 Y-16.6 F200
M05; Laser OFF
G0 X7.1 Y-16.6 F3000
M03; Laser ON
G1 X7.9 Y-16.6 F200
M05; Laser OFF
G0 X9.1 Y-16.6 F3000
M03; Laser ON
G1 X9.9 Y-16.6 F200
M05; Laser OFF
G0 X10.3 Y-16.6 F3000
M03; Laser ON
G1 X11.1 Y-16.6 F200
M05; Laser OFF
G0 X11.1 Y-16.4 F3000
M03; Laser ON
G1 X9.1 Y-16.4 F200
M05; Laser OFF
G0 X7.7 Y-16.4 F3000
M03; Laser ON
G1 X5.7 Y-16.4 F200
M05; Laser OFF
G0 X3.3 Y-16.4 F3000
M03; Laser ON
G1 X2.3 Y-16.4 F200
M05; Laser OFF
G0 X-0.3 Y-16.4 F3000
M03; Laser ON
G1 X-1.3 Y-16.4 F200
M05; Laser OFF
G0 X-4.9 Y-16.4 F3000
M03; Laser ON
G1 X-5.7 Y-16.4 F200
M05; Laser OFF
G0 X-9.5 Y-16.4 F3000
M03; Laser ON
G1 X-10.5 Y-16.4 F200
M05; Laser OFF
G0 X-10.9 Y-16.4 F3000
M03; Laser ON
G1 X-11.9 Y-16.4 F200
M05; Laser OFF
G0 X-11.7 Y-16.2 F3000
M03; Laser ON
G1 X-10.9 Y-16.2 F200
M05; Laser OFF
G0 X-10.5 Y-16.2 F3000
M03; Laser ON
G1 X-9.7 Y-16.2 F200
M05; Laser OFF
G0 X-5.7 Y-16.2 F3000
M03; Laser ON
G1 X-4.9 Y-16.2 F200
M05; Laser OFF
G0 X-1.3 Y-16.2 F3000
M03; Laser ON
G1 X-0.3 Y-16.2 F200
M05; Laser OFF
G0 X2.3 Y-16.2 F3000
M03; Laser ON
G1 X3.3 Y-16.2 F200
M05; Laser OFF
G0 X5.7 Y-16.2 F3000
M03; Laser ON
G1 X7.7 Y-16.2 F200
M05; Laser OFF
G0 X9.3 Y-16.2 F3000
M03; Laser ON
G1 X11.1 Y-16.2 F200
M05; Laser OFF
G0 X11.1 Y-16.0 F3000
M03; Laser ON
G1 X9.3 Y-16.0 F200
M05; Laser OFF
G0 X7.7 Y-16.0 F3000
M03; Laser ON
G1 X5.7 Y-16.0 F200
M05; Laser OFF
G0 X3.1 Y-16.0 F3000
M03; Laser ON
G1 X2.1 Y-16.0 F200
M05; Laser OFF
G0 X-0.1 Y-16.0 F3000
M03; Laser ON
G1 X-1.1 Y-16.0 F200
M05; Laser OFF
G0 X-4.9 Y-16.0 F3000
M03; Laser ON
G1 X-5.7 Y-16.0 F200
M05; Laser OFF
G0 X-9.7 Y-16.0 F3000
M03; Laser ON
G1 X-11.7 Y-16.0 F200
M05; Laser OFF
G0 X-11.5 Y-15.8 F3000
M03; Laser ON
G1 X-9.7 Y-15.8 F200
M05; Laser OFF
G0 X-5.7 Y-15.8 F3000
M03; Laser ON
G1 X-4.9 Y-15.8 F200
M05; Laser OFF
G0 X-1.1 Y-15.8 F3000
M03; Laser ON
G1 X0.1 Y-15.8 F200
M05; Laser OFF
G0 X1.9 Y-15.8 F3000
M03; Laser ON
G1 X3.1 Y-15.8 F200
M05; Laser OFF
G0 X5.7 Y-15.8 F3000
M03; Laser ON
G1 X7.5 Y-15.8 F200
M05; Laser OFF
G0 X9.3 Y-15.8 F3000
M03; Laser ON
G1 X11.1 Y-15.8 F200
M05; Laser OFF
G0 X11.1 Y-15.6 F3000
M03; Laser ON
G1 X9.3 Y-15.6 F200
M05; Laser OFF
G0 X7.5 Y-15.6 F3000
M03; Laser ON
G1 X5.7 Y-15.6 F200
M05; Laser OFF
G0 X2.9 Y-15.6 F3000
M03; Laser ON
G1 X1.7 Y-15.6 F200
M05; Laser OFF
G0 X0.3 Y-15.6 F3000
M03; Laser ON
G1 X-0.9 Y-15.6 F200
M05; Laser OFF
G0 X-3.5 Y-15.6 F3000
M03; Laser ON
G1 X-7.3 Y-15.6 F200
M05; Laser OFF
G0 X-9.9 Y-15.6 F3000
M03; Laser ON
G1 X-11.5 Y-15.6 F200
M05; Laser OFF
G0 X-11.5 Y-15.4 F3000
M03; Laser ON
G1 X-9.9 Y-15.4 F200
M05; Laser OFF
G0 X-7.3 Y-15.4 F3000
M03; Laser ON
G1 X-3.3 Y-15.4 F200
M05; Laser OFF
G0 X-0.7 Y-15.4 F3000
M03; Laser ON
G1 X2.9 Y-15.4 F200
M05; Laser OFF
G0 X5.7 Y-15.4 F3000
M03; Laser ON
G1 X7.5 Y-15.4 F200
M05; Laser OFF
G0 X9.5 Y-15.4 F3000
M03; Laser ON
G1 X11.1 Y-15.4 F200
M05; Laser OFF
G0 X11.1 Y-15.2 F3000
M03; Laser ON
G1 X9.5 Y-15.2 F200
M05; Laser OFF
G0 X7.3 Y-15.2 F3000
M03; Laser ON
G1 X5.7 Y-15.2 F200
M05; Laser OFF
G0 X2.7 Y-15.2 F3000
M03; Laser ON
G1 X-0.5 Y-15.2 F200
M05; Laser OFF
G0 X-3.3 Y-15.2 F3000
M03; Laser ON
G1 X-7.3 Y-15.2 F200
M05; Laser OFF
G0 X-10.1 Y-15.2 F3000
M03; Laser ON
G1 X-11.3 Y-15.2 F200
M05; Laser OFF
G0 X-11.3 Y-15.0 F3000
M03; Laser ON
G1 X-10.1 Y-15.0 F200
M05; Laser OFF
G0 X-7.3 Y-15.0 F3000
M03; Laser ON
G1 X-3.3 Y-15.0 F200
M05; Laser OFF
G0 X-0.3 Y-15.0 F3000
M03; Laser ON
G1 X2.5 Y-15.0 F200
M05; Laser OFF
G0 X5.7 Y-15.0 F3000
M03; Laser ON
G1 X7.3 Y-15.0 F200
M05; Laser OFF
G0 X9.5 Y-15.0 F3000
M03; Laser ON
G1 X11.1 Y-15.0 F200
M05; Laser OFF
G0 X11.1 Y-14.8 F3000
M03; Laser ON
G1 X9.7 Y-14.8 F200
M05; Laser OFF
G0 X7.3 Y-14.8 F3000
M03; Laser ON
G1 X5.7 Y-14.8 F200
M05; Laser OFF
G0 X2.1 Y-14.8 F3000
M03; Laser ON
G1 X-0.1 Y-14.8 F200
M05; Laser OFF
G0 X-3.3 Y-14.8 F3000
M03; Laser ON
G1 X-7.3 Y-14.8 F200
M05; Laser OFF
G0 X-10.1 Y-14.8 F3000
M03; Laser ON
G1 X-11.3 Y-14.8 F200
M05; Laser OFF
G0 X0.5 Y-14.6 F3000
M03; Laser ON
G1 X1.5 Y-14.6 F200
M05; Laser OFF
G0 X-2.3 Y-11.4 F3000
M03; Laser ON
G1 X0.3 Y-11.4 F200
M05; Laser OFF
G0 X1.5 Y-11.2 F3000
M03; Laser ON
G1 X-3.7 Y-11.2 F200
M05; Laser OFF
G0 X-4.5 Y-11.0 F3000
M03; Laser ON
G1 X2.5 Y-11.0 F200
M05; Laser OFF
G0 X3.1 Y-10.8 F3000
M03; Laser ON
G1 X-5.1 Y-10.8 F200
M05; Laser OFF
G0 X-5.7 Y-10.6 F3000
M03; Laser ON
G1 X3.7 Y-10.6 F200
M05; Laser OFF
G0 X4.3 Y-10.4 F3000
M03; Laser ON
G1 X-6.3 Y-10.4 F200
M05; Laser OFF
G0 X-6.7 Y-10.2 F3000
M03; Laser ON
G1 X4.7 Y-10.2 F200
M05; Laser OFF
G0 X5.1 Y-10.0 F3000
M03; Laser ON
G1 X-7.1 Y-10.0 F200
M05; Laser OFF
G0 X-7.5 Y-9.8 F3000
M03; Laser ON
G1 X5.5 Y-9.8 F200
M05; Laser OFF
G0 X5.9 Y-9.6 F3000
M03; Laser ON
G1 X0.9 Y-9.6 F200
M05; Laser OFF
G0 X-2.9 Y-9.6 F3000
M03; Laser ON
G1 X-7.9 Y-9.6 F200
M05; Laser OFF
G0 X-8.1 Y-9.4 F3000
M03; Laser ON
G1 X-3.9 Y-9.4 F200
M05; Laser OFF
G0 X1.9 Y-9.4 F3000
M03; Laser ON
G1 X6.1 Y-9.4 F200
M05; Laser OFF
G0 X6.5 Y-9.2 F3000
M03; Laser ON
G1 X2.7 Y-9.2 F200
M05; Laser OFF
G0 X-4.7 Y-9.2 F3000
M03; Laser ON
G1 X-8.5 Y-9.2 F200
M05; Laser OFF
G0 X-8.7 Y-9.0 F3000
M03; Laser ON
G1 X-5.3 Y-9.0 F200
M05; Laser OFF
G0 X3.3 Y-9.0 F3000
M03; Laser ON
G1 X6.7 Y-9.0 F200
M05; Laser OFF
G0 X7.1 Y-8.8 F3000
M03; Laser ON
G1 X3.7 Y-8.8 F200
M05; Laser OFF
G0 X-5.7 Y-8.8 F3000
M03; Laser ON
G1 X-9.1 Y-8.8 F200
M05; Laser OFF
G0 X-9.3 Y-8.6 F3000
M03; Laser ON
G1 X-6.1 Y-8.6 F200
M05; Laser OFF
G0 X4.1 Y-8.6 F3000
M03; Laser ON
G1 X7.3 Y-8.6 F200
M05; Laser OFF
G0 X7.5 Y-8.4 F3000
M03; Laser ON
G1 X4.5 Y-8.4 F200
M05; Laser OFF
G0 X4.9 Y-8.2 F3000
M03; Laser ON
G1 X7.9 Y-8.2 F200
M05; Laser OFF
G0 X12.9 Y-8.0 F3000
M03; Laser ON
G1 X9.1 Y-8.0 F200
M05; Laser OFF
G0 X8.1 Y-8.0 F3000
M03; Laser ON
G1 X5.3 Y-8.0 F200
M05; Laser OFF
G0 X4.1 Y-8.0 F3000
M03; Laser ON
G1 X-14.9 Y-8.0 F200
M05; Laser OFF
G0 X-15.1 Y-7.8 F3000
M03; Laser ON
G1 X4.5 Y-7.8 F200
M05; Laser OFF
G0 X5.7 Y-7.8 F3000
M03; Laser ON
G1 X8.3 Y-7.8 F200
M05; Laser OFF
G0 X9.1 Y-7.8 F3000
M03; Laser ON
G1 X13.1 Y-7.8 F200
M05; Laser OFF
G0 X13.1 Y-7.6 F3000
M03; Laser ON
G1 X9.3 Y-7.6 F200
M05; Laser OFF
G0 X8.5 Y-7.6 F3000
M03; Laser ON
G1 X5.9 Y-7.6 F200
M05; Laser OFF
G0 X4.9 Y-7.6 F3000
M03; Laser ON
G1 X-15.1 Y-7.6 F200
M05; Laser OFF
G0 X-15.3 Y-7.4 F3000
M03; Laser ON
G1 X5.3 Y-7.4 F200
M05; Laser OFF
G0 X6.3 Y-7.4 F3000
M03; Laser ON
G1 X8.7 Y-7.4 F200
M05; Laser OFF
G0 X9.5 Y-7.4 F3000
M03; Laser ON
G1 X13.3 Y-7.4 F200
M05; Laser OFF
G0 X13.3 Y-7.2 F3000
M03; Laser ON
G1 X9.7 Y-7.2 F200
M05; Laser OFF
G0 X8.9 Y-7.2 F3000
M03; Laser ON
G1 X6.5 Y-7.2 F200
M05; Laser OFF
G0 X5.5 Y-7.2 F3000
M03; Laser ON
G1 X-15.3 Y-7.2 F200
M05; Laser OFF
G0 X-15.5 Y-7.0 F3000
M03; Laser ON
G1 X5.9 Y-7.0 F200
M05; Laser OFF
G0 X6.7 Y-7.0 F3000
M03; Laser ON
G1 X9.1 Y-7.0 F200
M05; Laser OFF
G0 X9.9 Y-7.0 F3000
M03; Laser ON
G1 X13.5 Y-7.0 F200
M05; Laser OFF
G0 X13.7 Y-6.8 F3000
M03; Laser ON
G1 X10.1 Y-6.8 F200
M05; Laser OFF
G0 X9.3 Y-6.8 F3000
M03; Laser ON
G1 X6.9 Y-6.8 F200
M05; Laser OFF
G0 X6.1 Y-6.8 F3000
M03; Laser ON
G1 X-15.7 Y-6.8 F200
M05; Laser OFF
G0 X-15.7 Y-6.6 F3000
M03; Laser ON
G1 X6.3 Y-6.6 F200
M05; Laser OFF
G0 X7.3 Y-6.6 F3000
M03; Laser ON
G1 X9.5 Y-6.6 F200
M05; Laser OFF
G0 X10.3 Y-6.6 F3000
M03; Laser ON
G1 X13.7 Y-6.6 F200
M05; Laser OFF
G0 X13.9 Y-6.4 F3000
M03; Laser ON
G1 X10.5 Y-6.4 F200
M05; Laser OFF
G0 X9.7 Y-6.4 F3000
M03; Laser ON
G1 X7.5 Y-6.4 F200
M05; Laser OFF
G0 X6.5 Y-6.4 F3000
M03; Laser ON
G1 X-15.9 Y-6.4 F200
M05; Laser OFF
G0 X-15.9 Y-6.2 F3000
M03; Laser ON
G1 X-14.1 Y-6.2 F200
M05; Laser OFF
G0 X7.7 Y-6.2 F3000
M03; Laser ON
G1 X9.7 Y-6.2 F200
M05; Laser OFF
G0 X12.1 Y-6.2 F3000
M03; Laser ON
G1 X13.9 Y-6.2 F200
M05; Laser OFF
G0 X14.1 Y-6.0 F3000
M03; Laser ON
G1 X12.3 Y-6.0 F200
M05; Laser OFF
G0 X9.9 Y-6.0 F3000
M03; Laser ON
G1 X7.9 Y-6.0 F200
M05; Laser OFF
G0 X-14.3 Y-6.0 F3000
M03; Laser ON
G1 X-16.1 Y-6.0 F200
M05; Laser OFF
G0 X-16.1 Y-5.8 F3000
M03; Laser ON
G1 X-14.3 Y-5.8 F200
M05; Laser OFF
G0 X8.1 Y-5.8 F3000
M03; Laser ON
G1 X10.1 Y-5.8 F200
M05; Laser OFF
G0 X12.3 Y-5.8 F3000
M03; Laser ON
G1 X14.1 Y-5.8 F200
M05; Laser OFF
G0 X14.3 Y-5.6 F3000
M03; Laser ON
G1 X12.5 Y-5.6 F200
M05; Laser OFF
G0 X10.3 Y-5.6 F3000
M03; Laser ON
G1 X8.3 Y-5.6 F200
M05; Laser OFF
G0 X-10.3 Y-5.6 F3000
M03; Laser ON
G1 X-10.3 Y-5.6 F200
M05; Laser OFF
G0 X-12.1 Y-5.6 F3000
M03; Laser ON
G1 X-12.1 Y-5.6 F200
M05; Laser OFF
G0 X-14.5 Y-5.6 F3000
M03; Laser ON
G1 X-16.3 Y-5.6 F200
M05; Laser OFF
G0 X-16.5 Y-5.4 F3000
M03; Laser ON
G1 X-14.7 Y-5.4 F200
M05; Laser OFF
G0 X-12.3 Y-5.4 F3000
M03; Laser ON
G1 X-10.3 Y-5.4 F200
M05; Laser OFF
G0 X8.3 Y-5.4 F3000
M03; Laser ON
G1 X10.3 Y-5.4 F200
M05; Laser OFF
G0 X12.7 Y-5.4 F3000
M03; Laser ON
G1 X14.5 Y-5.4 F200
M05; Laser OFF
G0 X14.5 Y-5.2 F3000
M03; Laser ON
G1 X12.7 Y-5.2 F200
M05; Laser OFF
G0 X10.5 Y-5.2 F3000
M03; Laser ON
G1 X8.5 Y-5.2 F200
M05; Laser OFF
G0 X-10.5 Y-5.2 F3000
M03; Laser ON
G1 X-12.5 Y-5.2 F200
M05; Laser OFF
G0 X-14.7 Y-5.2 F3000
M03; Laser ON
G1 X-16.5 Y-5.2 F200
M05; Laser OFF
G0 X-16.7 Y-5.0 F3000
M03; Laser ON
G1 X-14.9 Y-5.0 F200
M05; Laser OFF
G0 X-12.7 Y-5.0 F3000
M03; Laser ON
G1 X-10.7 Y-5.0 F200
M05; Laser OFF
G0 X8.7 Y-5.0 F3000
M03; Laser ON
G1 X10.7 Y-5.0 F200
M05; Laser OFF
G0 X12.9 Y-5.0 F3000
M03; Laser ON
G1 X14.7 Y-5.0 F200
M05; Laser OFF
G0 X14.7 Y-4.8 F3000
M03; Laser ON
G1 X12.9 Y-4.8 F200
M05; Laser OFF
G0 X10.7 Y-4.8 F3000
M03; Laser ON
G1 X8.9 Y-4.8 F200
M05; Laser OFF
G0 X-10.9 Y-4.8 F3000
M03; Laser ON
G1 X-12.7 Y-4.8 F200
M05; Laser OFF
G0 X-14.9 Y-4.8 F3000
M03; Laser ON
G1 X-16.7 Y-4.8 F200
M05; Laser OFF
G0 X-16.9 Y-4.6 F3000
M03; Laser ON
G1 X-15.1 Y-4.6 F200
M05; Laser OFF
G0 X-12.9 Y-4.6 F3000
M03; Laser ON
G1 X-11.1 Y-4.6 F200
M05; Laser OFF
G0 X9.1 Y-4.6 F3000
M03; Laser ON
G1 X10.9 Y-4.6 F200
M05; Laser OFF
G0 X13.1 Y-4.6 F3000
M03; Laser ON
G1 X14.9 Y-4.6 F200
M05; Laser OFF
G0 X14.7 Y-4.4 F3000
M03; Laser ON
G1 X12.9 Y-4.4 F200
M05; Laser OFF
G0 X10.9 Y-4.4 F3000
M03; Laser ON
G1 X9.1 Y-4.4 F200
M05; Laser OFF
G0 X-11.1 Y-4.4 F3000
M03; Laser ON
G1 X-12.9 Y-4.4 F200
M05; Laser OFF
G0 X-14.9 Y-4.4 F3000
M03; Laser ON
G1 X-16.7 Y-4.4 F200
M05; Laser OFF
G0 X-16.7 Y-4.2 F3000
M03; Laser ON
G1 X-14.9 Y-4.2 F200
M05; Laser OFF
G0 X-13.1 Y-4.2 F3000
M03; Laser ON
G1 X-11.3 Y-4.2 F200
M05; Laser OFF
G0 X9.3 Y-4.2 F3000
M03; Laser ON
G1 X11.1 Y-4.2 F200
M05; Laser OFF
G0 X12.9 Y-4.2 F3000
M03; Laser ON
G1 X14.7 Y-4.2 F200
M05; Laser OFF
G0 X14.5 Y-4.0 F3000
M03; Laser ON
G1 X12.7 Y-4.0 F200
M05; Laser OFF
G0 X11.3 Y-4.0 F3000
M03; Laser ON
G1 X9.3 Y-4.0 F200
M05; Laser OFF
G0 X-11.3 Y-4.0 F3000
M03; Laser ON
G1 X-13.3 Y-4.0 F200
M05; Laser OFF
G0 X-14.7 Y-4.0 F3000
M03; Laser ON
G1 X-16.5 Y-4.0 F200
M05; Laser OFF
G0 X-16.5 Y-3.8 F3000
M03; Laser ON
G1 X-14.7 Y-3.8 F200
M05; Laser OFF
G0 X-13.3 Y-3.8 F3000
M03; Laser ON
G1 X-11.5 Y-3.8 F200
M05; Laser OFF
G0 X9.5 Y-3.8 F3000
M03; Laser ON
G1 X11.3 Y-3.8 F200
M05; Laser OFF
G0 X12.7 Y-3.8 F3000
M03; Laser ON
G1 X14.5 Y-3.8 F200
M05; Laser OFF
G0 X14.3 Y-3.6 F3000
M03; Laser ON
G1 X12.5 Y-3.6 F200
M05; Laser OFF
G0 X11.5 Y-3.6 F3000
M03; Laser ON
G1 X9.7 Y-3.6 F200
M05; Laser OFF
G0 X-11.7 Y-3.6 F3000
M03; Laser ON
G1 X-13.5 Y-3.6 F200
M05; Laser OFF
G0 X-14.5 Y-3.6 F3000
M03; Laser ON
G1 X-16.3 Y-3.6 F200
M05; Laser OFF
G0 X-16.3 Y-3.4 F3000
M03; Laser ON
G1 X-14.3 Y-3.4 F200
M05; Laser OFF
G0 X-13.5 Y-3.4 F3000
M03; Laser ON
G1 X-11.7 Y-3.4 F200
M05; Laser OFF
G0 X9.7 Y-3.4 F3000
M03; Laser ON
G1 X11.5 Y-3.4 F200
M05; Laser OFF
G0 X12.3 Y-3.4 F3000
M03; Laser ON
G1 X14.3 Y-3.4 F200
M05; Laser OFF
G0 X14.1 Y-3.2 F3000
M03; Laser ON
G1 X12.3 Y-3.2 F200
M05; Laser OFF
G0 X11.3 Y-3.2 F3000
M03; Laser ON
G1 X9.9 Y-3.2 F200
M05; Laser OFF
G0 X-11.9 Y-3.2 F3000
M03; Laser ON
G1 X-13.7 Y-3.2 F200
M05; Laser OFF
G0 X-14.3 Y-3.2 F3000
M03; Laser ON
G1 X-16.1 Y-3.2 F200
M05; Laser OFF
G0 X-15.9 Y-3.0 F3000
M03; Laser ON
G1 X-14.5 Y-3.0 F200
M05; Laser OFF
G0 X-13.7 Y-3.0 F3000
M03; Laser ON
G1 X-11.9 Y-3.0 F200
M05; Laser OFF
G0 X9.9 Y-3.0 F3000
M03; Laser ON
G1 X11.3 Y-3.0 F200
M05; Laser OFF
G0 X12.1 Y-3.0 F3000
M03; Laser ON
G1 X13.9 Y-3.0 F200
M05; Laser OFF
G0 X13.9 Y-2.8 F3000
M03; Laser ON
G1 X12.1 Y-2.8 F200
M05; Laser OFF
G0 X11.1 Y-2.8 F3000
M03; Laser ON
G1 X10.1 Y-2.8 F200
M05; Laser OFF
G0 X-12.1 Y-2.8 F3000
M03; Laser ON
G1 X-13.7 Y-2.8 F200
M05; Laser OFF
G0 X-14.5 Y-2.8 F3000
M03; Laser ON
G1 X-15.9 Y-2.8 F200
M05; Laser OFF
G0 X-15.7 Y-2.6 F3000
M03; Laser ON
G1 X-14.5 Y-2.6 F200
M05; Laser OFF
G0 X-13.9 Y-2.6 F3000
M03; Laser ON
G1 X-12.1 Y-2.6 F200
M05; Laser OFF
G0 X10.1 Y-2.6 F3000
M03; Laser ON
G1 X11.1 Y-2.6 F200
M05; Laser OFF
G0 X11.9 Y-2.6 F3000
M03; Laser ON
G1 X13.7 Y-2.6 F200
M05; Laser OFF
G0 X13.7 Y-2.4 F3000
M03; Laser ON
G1 X11.9 Y-2.4 F200
M05; Laser OFF
G0 X10.9 Y-2.4 F3000
M03; Laser ON
G1 X10.3 Y-2.4 F200
M05; Laser OFF
G0 X-12.3 Y-2.4 F3000
M03; Laser ON
G1 X-13.9 Y-2.4 F200
M05; Laser OFF
G0 X-14.7 Y-2.4 F3000
M03; Laser ON
G1 X-15.7 Y-2.4 F200
M05; Laser OFF
G0 X-15.5 Y-2.2 F3000
M03; Laser ON
G1 X-14.7 Y-2.2 F200
M05; Laser OFF
G0 X-13.9 Y-2.2 F3000
M03; Laser ON
G1 X-12.3 Y-2.2 F200
M05; Laser OFF
G0 X10.3 Y-2.2 F3000
M03; Laser ON
G1 X10.9 Y-2.2 F200
M05; Laser OFF
G0 X11.7 Y-2.2 F3000
M03; Laser ON
G1 X13.5 Y-2.2 F200
M05; Laser OFF
G0 X13.5 Y-2.0 F3000
M03; Laser ON
G1 X11.5 Y-2.0 F200
M05; Laser OFF
G0 X10.7 Y-2.0 F3000
M03; Laser ON
G1 X10.5 Y-2.0 F200
M05; Laser OFF
G0 X-12.5 Y-2.0 F3000
M03; Laser ON
G1 X-14.1 Y-2.0 F200
M05; Laser OFF
G0 X-14.7 Y-2.0 F3000
M03; Laser ON
G1 X-15.5 Y-2.0 F200
M05; Laser OFF
G0 X-15.3 Y-1.8 F3000
M03; Laser ON
G1 X-14.9 Y-1.8 F200
M05; Laser OFF
G0 X-14.1 Y-1.8 F3000
M03; Laser ON
G1 X-12.5 Y-1.8 F200
M05; Laser OFF
G0 X10.5 Y-1.8 F3000
M03; Laser ON
G1 X10.5 Y-1.8 F200
M05; Laser OFF
G0 X11.5 Y-1.8 F3000
M03; Laser ON
G1 X13.3 Y-1.8 F200
M05; Laser OFF
G0 X13.1 Y-1.6 F3000
M03; Laser ON
G1 X11.3 Y-1.6 F200
M05; Laser OFF
G0 X-12.5 Y-1.6 F3000
M03; Laser ON
G1 X-14.1 Y-1.6 F200
M05; Laser OFF
G0 X-14.9 Y-1.6 F3000
M03; Laser ON
G1 X-15.1 Y-1.6 F200
M05; Laser OFF
G0 X-15.1 Y-1.4 F3000
M03; Laser ON
G1 X-14.9 Y-1.4 F200
M05; Laser OFF
G0 X-14.3 Y-1.4 F3000
M03; Laser ON
G1 X-12.7 Y-1.4 F200
M05; Laser OFF
G0 X11.3 Y-1.4 F3000
M03; Laser ON
G1 X13.1 Y-1.4 F200
M05; Laser OFF
G0 X12.9 Y-1.2 F3000
M03; Laser ON
G1 X11.1 Y-1.2 F200
M05; Laser OFF
G0 X-12.7 Y-1.2 F3000
M03; Laser ON
G1 X-14.3 Y-1.2 F200
M05; Laser OFF
G0 X-14.3 Y-1.0 F3000
M03; Laser ON
G1 X-12.7 Y-1.0 F200
M05; Laser OFF
G0 X11.1 Y-1.0 F3000
M03; Laser ON
G1 X12.9 Y-1.0 F200
M05; Laser OFF
G0 X12.7 Y-0.8 F3000
M03; Laser ON
G1 X10.9 Y-0.8 F200
M05; Laser OFF
G0 X-12.9 Y-0.8 F3000
M03; Laser ON
G1 X-14.5 Y-0.8 F200
M05; Laser OFF
G0 X-14.5 Y-0.6 F3000
M03; Laser ON
G1 X-12.9 Y-0.6 F200
M05; Laser OFF
G0 X10.7 Y-0.6 F3000
M03; Laser ON
G1 X12.5 Y-0.6 F200
M05; Laser OFF
G0 X12.5 Y-0.4 F3000
M03; Laser ON
G1 X10.7 Y-0.4 F200
M05; Laser OFF
G0 X-12.9 Y-0.4 F3000
M03; Laser ON
G1 X-14.5 Y-0.4 F200
M05; Laser OFF
G0 X-14.5 Y-0.2 F3000
M03; Laser ON
G1 X-12.9 Y-0.2 F200
M05; Laser OFF
G0 X10.5 Y-0.2 F3000
M03; Laser ON
G1 X12.3 Y-0.2 F200
M05; Laser OFF
G0 X12.3 Y0.0 F3000
M03; Laser ON
G1 X10.5 Y0.0 F200
M05; Laser OFF
G0 X-12.9 Y0.0 F3000
M03; Laser ON
G1 X-14.5 Y0.0 F200
M05; Laser OFF
G0 X-14.7 Y0.2 F3000
M03; Laser ON
G1 X-13.1 Y0.2 F200
M05; Laser OFF
G0 X-12.3 Y0.2 F3000
M03; Laser ON
G1 X-12.3 Y0.2 F200
M05; Laser OFF
G0 X10.3 Y0.2 F3000
M03; Laser ON
G1 X12.1 Y0.2 F200
M05; Laser OFF
G0 X12.1 Y0.4 F3000
M03; Laser ON
G1 X10.3 Y0.4 F200
M05; Laser OFF
G0 X-12.3 Y0.4 F3000
M03; Laser ON
G1 X-12.5 Y0.4 F200
M05; Laser OFF
G0 X-13.1 Y0.4 F3000
M03; Laser ON
G1 X-14.7 Y0.4 F200
M05; Laser OFF
G0 X-14.7 Y0.6 F3000
M03; Laser ON
G1 X-13.1 Y0.6 F200
M05; Laser OFF
G0 X-12.5 Y0.6 F3000
M03; Laser ON
G1 X-12.1 Y0.6 F200
M05; Laser OFF
G0 X10.1 Y0.6 F3000
M03; Laser ON
G1 X11.9 Y0.6 F200
M05; Laser OFF
G0 X12.7 Y0.8 F3000
M03; Laser ON
G1 X12.7 Y0.8 F200
M05; Laser OFF
G0 X11.7 Y0.8 F3000
M03; Laser ON
G1 X9.9 Y0.8 F200
M05; Laser OFF
G0 X-11.9 Y0.8 F3000
M03; Laser ON
G1 X-12.5 Y0.8 F200
M05; Laser OFF
G0 X-13.1 Y0.8 F3000
M03; Laser ON
G1 X-14.7 Y0.8 F200
M05; Laser OFF
G0 X-14.7 Y1.0 F3000
M03; Laser ON
G1 X-13.1 Y1.0 F200
M05; Laser OFF
G0 X-12.5 Y1.0 F3000
M03; Laser ON
G1 X-11.9 Y1.0 F200
M05; Laser OFF
G0 X9.9 Y1.0 F3000
M03; Laser ON
G1 X11.7 Y1.0 F200
M05; Laser OFF
G0 X12.5 Y1.0 F3000
M03; Laser ON
G1 X12.7 Y1.0 F200
M05; Laser OFF
G0 X12.7 Y1.2 F3000
M03; Laser ON
G1 X12.5 Y1.2 F200
M05; Laser OFF
G0 X11.5 Y1.2 F3000
M03; Laser ON
G1 X9.7 Y1.2 F200
M05; Laser OFF
G0 X-11.7 Y1.2 F3000
M03; Laser ON
G1 X-12.5 Y1.2 F200
M05; Laser OFF
G0 X-13.1 Y1.2 F3000
M03; Laser ON
G1 X-14.7 Y1.2 F200
M05; Laser OFF
G0 X-14.7 Y1.4 F3000
M03; Laser ON
G1 X-13.1 Y1.4 F200
M05; Laser OFF
G0 X-12.5 Y1.4 F3000
M03; Laser ON
G1 X-11.7 Y1.4 F200
M05; Laser OFF
G0 X9.7 Y1.4 F3000
M03; Laser ON
G1 X11.5 Y1.4 F200
M05; Laser OFF
G0 X12.3 Y1.4 F3000
M03; Laser ON
G1 X12.7 Y1.4 F200
M05; Laser OFF
G0 X12.7 Y1.6 F3000
M03; Laser ON
G1 X12.1 Y1.6 F200
M05; Laser OFF
G0 X11.3 Y1.6 F3000
M03; Laser ON
G1 X9.5 Y1.6 F200
M05; Laser OFF
G0 X-11.5 Y1.6 F3000
M03; Laser ON
G1 X-12.5 Y1.6 F200
M05; Laser OFF
G0 X-13.3 Y1.6 F3000
M03; Laser ON
G1 X-14.7 Y1.6 F200
M05; Laser OFF
G0 X-14.7 Y1.8 F3000
M03; Laser ON
G1 X-13.3 Y1.8 F200
M05; Laser OFF
G0 X-12.5 Y1.8 F3000
M03; Laser ON
G1 X-11.3 Y1.8 F200
M05; Laser OFF
G0 X9.3 Y1.8 F3000
M03; Laser ON
G1 X11.3 Y1.8 F200
M05; Laser OFF
G0 X12.1 Y1.8 F3000
M03; Laser ON
G1 X12.7 Y1.8 F200
M05; Laser OFF
G0 X12.7 Y2.0 F3000
M03; Laser ON
G1 X11.9 Y2.0 F200
M05; Laser OFF
G0 X11.1 Y2.0 F3000
M03; Laser ON
G1 X9.3 Y2.0 F200
M05; Laser OFF
G0 X-11.3 Y2.0 F3000
M03; Laser ON
G1 X-12.5 Y2.0 F200
M05; Laser OFF
G0 X-13.3 Y2.0 F3000
M03; Laser ON
G1 X-14.7 Y2.0 F200
M05; Laser OFF
G0 X-14.7 Y2.2 F3000
M03; Laser ON
G1 X-13.3 Y2.2 F200
M05; Laser OFF
G0 X-12.5 Y2.2 F3000
M03; Laser ON
G1 X-11.1 Y2.2 F200
M05; Laser OFF
G0 X9.1 Y2.2 F3000
M03; Laser ON
G1 X10.9 Y2.2 F200
M05; Laser OFF
G0 X11.9 Y2.2 F3000
M03; Laser ON
G1 X12.7 Y2.2 F200
M05; Laser OFF
G0 X12.7 Y2.4 F3000
M03; Laser ON
G1 X11.7 Y2.4 F200
M05; Laser OFF
G0 X10.9 Y2.4 F3000
M03; Laser ON
G1 X9.1 Y2.4 F200
M05; Laser OFF
G0 X-11.1 Y2.4 F3000
M03; Laser ON
G1 X-12.5 Y2.4 F200
M05; Laser OFF
G0 X-13.3 Y2.4 F3000
M03; Laser ON
G1 X-14.7 Y2.4 F200
M05; Laser OFF
G0 X-14.7 Y2.6 F3000
M03; Laser ON
G1 X-13.3 Y2.6 F200
M05; Laser OFF
G0 X-12.5 Y2.6 F3000
M03; Laser ON
G1 X-10.9 Y2.6 F200
M05; Laser OFF
G0 X8.9 Y2.6 F3000
M03; Laser ON
G1 X10.7 Y2.6 F200
M05; Laser OFF
G0 X11.7 Y2.6 F3000
M03; Laser ON
G1 X12.7 Y2.6 F200
M05; Laser OFF
G0 X12.7 Y2.8 F3000
M03; Laser ON
G1 X11.5 Y2.8 F200
M05; Laser OFF
G0 X10.7 Y2.8 F3000
M03; Laser ON
G1 X8.9 Y2.8 F200
M05; Laser OFF
G0 X-10.9 Y2.8 F3000
M03; Laser ON
G1 X-12.5 Y2.8 F200
M05; Laser OFF
G0 X-13.3 Y2.8 F3000
M03; Laser ON
G1 X-14.7 Y2.8 F200
M05; Laser OFF
G0 X-14.7 Y3.0 F3000
M03; Laser ON
G1 X-13.3 Y3.0 F200
M05; Laser OFF
G0 X-12.5 Y3.0 F3000
M03; Laser ON
G1 X-10.7 Y3.0 F200
M05; Laser OFF
G0 X8.7 Y3.0 F3000
M03; Laser ON
G1 X10.5 Y3.0 F200
M05; Laser OFF
G0 X11.3 Y3.0 F3000
M03; Laser ON
G1 X12.7 Y3.0 F200
M05; Laser OFF
G0 X12.7 Y3.2 F3000
M03; Laser ON
G1 X11.3 Y3.2 F200
M05; Laser OFF
G0 X10.5 Y3.2 F3000
M03; Laser ON
G1 X8.5 Y3.2 F200
M05; Laser OFF
G0 X-10.5 Y3.2 F3000
M03; Laser ON
G1 X-12.5 Y3.2 F200
M05; Laser OFF
G0 X-13.3 Y3.2 F3000
M03; Laser ON
G1 X-14.7 Y3.2 F200
M05; Laser OFF
G0 X-14.7 Y3.4 F3000
M03; Laser ON
G1 X-13.3 Y3.4 F200
M05; Laser OFF
G0 X-12.3 Y3.4 F3000
M03; Laser ON
G1 X-10.5 Y3.4 F200
M05; Laser OFF
G0 X8.5 Y3.4 F3000
M03; Laser ON
G1 X10.3 Y3.4 F200
M05; Laser OFF
G0 X11.1 Y3.4 F3000
M03; Laser ON
G1 X12.7 Y3.4 F200
M05; Laser OFF
G0 X12.7 Y3.6 F3000
M03; Laser ON
G1 X11.1 Y3.6 F200
M05; Laser OFF
G0 X10.1 Y3.6 F3000
M03; Laser ON
G1 X8.3 Y3.6 F200
M05; Laser OFF
G0 X-10.3 Y3.6 F3000
M03; Laser ON
G1 X-12.1 Y3.6 F200
M05; Laser OFF
G0 X-13.1 Y3.6 F3000
M03; Laser ON
G1 X-14.7 Y3.6 F200
M05; Laser OFF
G0 X-14.7 Y3.8 F3000
M03; Laser ON
G1 X-13.1 Y3.8 F200
M05; Laser OFF
G0 X-12.1 Y3.8 F3000
M03; Laser ON
G1 X-10.3 Y3.8 F200
M05; Laser OFF
G0 X8.3 Y3.8 F3000
M03; Laser ON
G1 X10.1 Y3.8 F200
M05; Laser OFF
G0 X11.1 Y3.8 F3000
M03; Laser ON
G1 X12.7 Y3.8 F200
M05; Laser OFF
G0 X12.7 Y4.0 F3000
M03; Laser ON
G1 X11.1 Y4.0 F200
M05; Laser OFF
G0 X9.9 Y4.0 F3000
M03; Laser ON
G1 X8.1 Y4.0 F200
M05; Laser OFF
G0 X-10.1 Y4.0 F3000
M03; Laser ON
G1 X-11.9 Y4.0 F200
M05; Laser OFF
G0 X-13.1 Y4.0 F3000
M03; Laser ON
G1 X-14.7 Y4.0 F200
M05; Laser OFF
G0 X-14.7 Y4.2 F3000
M03; Laser ON
G1 X-13.1 Y4.2 F200
M05; Laser OFF
G0 X-11.9 Y4.2 F3000
M03; Laser ON
G1 X-10.1 Y4.2 F200
M05; Laser OFF
G0 X8.1 Y4.2 F3000
M03; Laser ON
G1 X9.9 Y4.2 F200
M05; Laser OFF
G0 X11.1 Y4.2 F3000
M03; Laser ON
G1 X12.7 Y4.2 F200
M05; Laser OFF
G0 X12.7 Y4.4 F3000
M03; Laser ON
G1 X11.1 Y4.4 F200
M05; Laser OFF
G0 X9.7 Y4.4 F3000
M03; Laser ON
G1 X7.9 Y4.4 F200
M05; Laser OFF
G0 X-9.9 Y4.4 F3000
M03; Laser ON
G1 X-11.7 Y4.4 F200
M05; Laser OFF
G0 X-13.1 Y4.4 F3000
M03; Laser ON
G1 X-14.7 Y4.4 F200
M05; Laser OFF
G0 X-14.7 Y4.6 F3000
M03; Laser ON
G1 X-13.1 Y4.6 F200
M05; Laser OFF
G0 X-11.5 Y4.6 F3000
M03; Laser ON
G1 X-9.7 Y4.6 F200
M05; Laser OFF
G0 X7.7 Y4.6 F3000
M03; Laser ON
G1 X9.5 Y4.6 F200
M05; Laser OFF
G0 X11.1 Y4.6 F3000
M03; Laser ON
G1 X12.7 Y4.6 F200
M05; Laser OFF
G0 X12.5 Y4.8 F3000
M03; Laser ON
G1 X11.1 Y4.8 F200
M05; Laser OFF
G0 X9.5 Y4.8 F3000
M03; Laser ON
G1 X7.7 Y4.8 F200
M05; Laser OFF
G0 X-9.7 Y4.8 F3000
M03; Laser ON
G1 X-11.5 Y4.8 F200
M05; Laser OFF
G0 X-13.1 Y4.8 F3000
M03; Laser ON
G1 X-14.5 Y4.8 F200
M05; Laser OFF
G0 X-14.5 Y5.0 F3000
M03; Laser ON
G1 X-12.9 Y5.0 F200
M05; Laser OFF
G0 X-11.3 Y5.0 F3000
M03; Laser ON
G1 X-9.5 Y5.0 F200
M05; Laser OFF
G0 X7.5 Y5.0 F3000
M03; Laser ON
G1 X9.3 Y5.0 F200
M05; Laser OFF
G0 X10.9 Y5.0 F3000
M03; Laser ON
G1 X12.5 Y5.0 F200
M05; Laser OFF
G0 X12.5 Y5.2 F3000
M03; Laser ON
G1 X10.9 Y5.2 F200
M05; Laser OFF
G0 X9.3 Y5.2 F3000
M03; Laser ON
G1 X7.5 Y5.2 F200
M05; Laser OFF
G0 X-9.5 Y5.2 F3000
M03; Laser ON
G1 X-11.3 Y5.2 F200
M05; Laser OFF
G0 X-12.9 Y5.2 F3000
M03; Laser ON
G1 X-14.5 Y5.2 F200
M05; Laser OFF
G0 X-14.5 Y5.4 F3000
M03; Laser ON
G1 X-12.9 Y5.4 F200
M05; Laser OFF
G0 X-11.1 Y5.4 F3000
M03; Laser ON
G1 X-9.3 Y5.4 F200
M05; Laser OFF
G0 X7.3 Y5.4 F3000
M03; Laser ON
G1 X9.1 Y5.4 F200
M05; Laser OFF
G0 X10.9 Y5.4 F3000
M03; Laser ON
G1 X12.5 Y5.4 F200
M05; Laser OFF
G0 X12.5 Y5.6 F3000
M03; Laser ON
G1 X10.9 Y5.6 F200
M05; Laser OFF
G0 X9.1 Y5.6 F3000
M03; Laser ON
G1 X7.3 Y5.6 F200
M05; Laser OFF
G0 X-9.3 Y5.6 F3000
M03; Laser ON
G1 X-11.1 Y5.6 F200
M05; Laser OFF
G0 X-12.9 Y5.6 F3000
M03; Laser ON
G1 X-14.5 Y5.6 F200
M05; Laser OFF
G0 X-14.3 Y5.8 F3000
M03; Laser ON
G1 X-12.7 Y5.8 F200
M05; Laser OFF
G0 X-10.9 Y5.8 F3000
M03; Laser ON
G1 X-9.1 Y5.8 F200
M05; Laser OFF
G0 X7.1 Y5.8 F3000
M03; Laser ON
G1 X8.9 Y5.8 F200
M05; Laser OFF
G0 X10.7 Y5.8 F3000
M03; Laser ON
G1 X12.3 Y5.8 F200
M05; Laser OFF
G0 X12.3 Y6.0 F3000
M03; Laser ON
G1 X10.7 Y6.0 F200
M05; Laser OFF
G0 X8.7 Y6.0 F3000
M03; Laser ON
G1 X6.9 Y6.0 F200
M05; Laser OFF
G0 X-8.9 Y6.0 F3000
M03; Laser ON
G1 X-10.7 Y6.0 F200
M05; Laser OFF
G0 X-12.7 Y6.0 F3000
M03; Laser ON
G1 X-14.3 Y6.0 F200
M05; Laser OFF
G0 X-14.3 Y6.2 F3000
M03; Laser ON
G1 X-12.7 Y6.2 F200
M05; Laser OFF
G0 X-10.7 Y6.2 F3000
M03; Laser ON
G1 X-8.9 Y6.2 F200
M05; Laser OFF
G0 X6.9 Y6.2 F3000
M03; Laser ON
G1 X8.7 Y6.2 F200
M05; Laser OFF
G0 X10.7 Y6.2 F3000
M03; Laser ON
G1 X12.3 Y6.2 F200
M05; Laser OFF
G0 X12.3 Y6.4 F3000
M03; Laser ON
G1 X10.5 Y6.4 F200
M05; Laser OFF
G0 X8.5 Y6.4 F3000
M03; Laser ON
G1 X6.7 Y6.4 F200
M05; Laser OFF
G0 X-8.7 Y6.4 F3000
M03; Laser ON
G1 X-10.5 Y6.4 F200
M05; Laser OFF
G0 X-12.5 Y6.4 F3000
M03; Laser ON
G1 X-14.3 Y6.4 F200
M05; Laser OFF
G0 X-14.1 Y6.6 F3000
M03; Laser ON
G1 X-12.5 Y6.6 F200
M05; Laser OFF
G0 X-10.5 Y6.6 F3000
M03; Laser ON
G1 X-8.7 Y6.6 F200
M05; Laser OFF
G0 X6.7 Y6.6 F3000
M03; Laser ON
G1 X8.5 Y6.6 F200
M05; Laser OFF
G0 X10.5 Y6.6 F3000
M03; Laser ON
G1 X12.1 Y6.6 F200
M05; Laser OFF
G0 X12.1 Y6.8 F3000
M03; Laser ON
G1 X10.5 Y6.8 F200
M05; Laser OFF
G0 X8.3 Y6.8 F3000
M03; Laser ON
G1 X6.5 Y6.8 F200
M05; Laser OFF
G0 X-8.5 Y6.8 F3000
M03; Laser ON
G1 X-10.3 Y6.8 F200
M05; Laser OFF
G0 X-12.5 Y6.8 F3000
M03; Laser ON
G1 X-14.1 Y6.8 F200
M05; Laser OFF
G0 X-14.1 Y7.0 F3000
M03; Laser ON
G1 X-12.3 Y7.0 F200
M05; Laser OFF
G0 X-10.3 Y7.0 F3000
M03; Laser ON
G1 X-8.3 Y7.0 F200
M05; Laser OFF
G0 X6.3 Y7.0 F3000
M03; Laser ON
G1 X8.3 Y7.0 F200
M05; Laser OFF
G0 X10.3 Y7.0 F3000
M03; Laser ON
G1 X12.1 Y7.0 F200
M05; Laser OFF
G0 X11.9 Y7.2 F3000
M03; Laser ON
G1 X10.3 Y7.2 F200
M05; Laser OFF
G0 X8.1 Y7.2 F3000
M03; Laser ON
G1 X6.3 Y7.2 F200
M05; Laser OFF
G0 X-8.3 Y7.2 F3000
M03; Laser ON
G1 X-10.1 Y7.2 F200
M05; Laser OFF
G0 X-12.3 Y7.2 F3000
M03; Laser ON
G1 X-13.9 Y7.2 F200
M05; Laser OFF
G0 X-13.9 Y7.4 F3000
M03; Laser ON
G1 X-12.1 Y7.4 F200
M05; Laser OFF
G0 X-9.9 Y7.4 F3000
M03; Laser ON
G1 X-8.1 Y7.4 F200
M05; Laser OFF
G0 X6.1 Y7.4 F3000
M03; Laser ON
G1 X7.9 Y7.4 F200
M05; Laser OFF
G0 X10.1 Y7.4 F3000
M03; Laser ON
G1 X11.9 Y7.4 F200
M05; Laser OFF
G0 X11.7 Y7.6 F3000
M03; Laser ON
G1 X10.1 Y7.6 F200
M05; Laser OFF
G0 X7.9 Y7.6 F3000
M03; Laser ON
G1 X6.1 Y7.6 F200
M05; Laser OFF
G0 X-8.1 Y7.6 F3000
M03; Laser ON
G1 X-9.9 Y7.6 F200
M05; Laser OFF
G0 X-12.1 Y7.6 F3000
M03; Laser ON
G1 X-13.7 Y7.6 F200
M05; Laser OFF
G0 X-13.7 Y7.8 F3000
M03; Laser ON
G1 X-11.9 Y7.8 F200
M05; Laser OFF
G0 X-9.7 Y7.8 F3000
M03; Laser ON
G1 X-7.9 Y7.8 F200
M05; Laser OFF
G0 X5.9 Y7.8 F3000
M03; Laser ON
G1 X7.7 Y7.8 F200
M05; Laser OFF
G0 X9.9 Y7.8 F3000
M03; Laser ON
G1 X11.7 Y7.8 F200
M05; Laser OFF
G0 X11.7 Y8.0 F3000
M03; Laser ON
G1 X9.9 Y8.0 F200
M05; Laser OFF
G0 X7.7 Y8.0 F3000
M03; Laser ON
G1 X5.9 Y8.0 F200
M05; Laser OFF
G0 X-7.9 Y8.0 F3000
M03; Laser ON
G1 X-9.7 Y8.0 F200
M05; Laser OFF
G0 X-11.9 Y8.0 F3000
M03; Laser ON
G1 X-13.7 Y8.0 F200
M05; Laser OFF
G0 X-13.5 Y8.2 F3000
M03; Laser ON
G1 X-11.7 Y8.2 F200
M05; Laser OFF
G0 X-9.5 Y8.2 F3000
M03; Laser ON
G1 X-7.7 Y8.2 F200
M05; Laser OFF
G0 X5.7 Y8.2 F3000
M03; Laser ON
G1 X7.5 Y8.2 F200
M05; Laser OFF
G0 X9.7 Y8.2 F3000
M03; Laser ON
G1 X11.5 Y8.2 F200
M05; Laser OFF
G0 X11.5 Y8.4 F3000
M03; Laser ON
G1 X9.7 Y8.4 F200
M05; Laser OFF
G0 X7.5 Y8.4 F3000
M03; Laser ON
G1 X5.5 Y8.4 F200
M05; Laser OFF
G0 X-7.5 Y8.4 F3000
M03; Laser ON
G1 X-9.5 Y8.4 F200
M05; Laser OFF
G0 X-11.7 Y8.4 F3000
M03; Laser ON
G1 X-13.5 Y8.4 F200
M05; Laser OFF
G0 X-13.3 Y8.6 F3000
M03; Laser ON
G1 X-11.5 Y8.6 F200
M05; Laser OFF
G0 X-9.3 Y8.6 F3000
M03; Laser ON
G1 X-7.5 Y8.6 F200
M05; Laser OFF
G0 X5.5 Y8.6 F3000
M03; Laser ON
G1 X7.3 Y8.6 F200
M05; Laser OFF
G0 X9.5 Y8.6 F3000
M03; Laser ON
G1 X11.3 Y8.6 F200
M05; Laser OFF
G0 X11.3 Y8.8 F3000
M03; Laser ON
G1 X9.5 Y8.8 F200
M05; Laser OFF
G0 X7.1 Y8.8 F3000
M03; Laser ON
G1 X5.3 Y8.8 F200
M05; Laser OFF
G0 X-7.3 Y8.8 F3000
M03; Laser ON
G1 X-9.1 Y8.8 F200
M05; Laser OFF
G0 X-11.5 Y8.8 F3000
M03; Laser ON
G1 X-13.3 Y8.8 F200
M05; Laser OFF
G0 X-13.1 Y9.0 F3000
M03; Laser ON
G1 X-11.3 Y9.0 F200
M05; Laser OFF
G0 X-9.1 Y9.0 F3000
M03; Laser ON
G1 X-7.3 Y9.0 F200
M05; Laser OFF
G0 X5.3 Y9.0 F3000
M03; Laser ON
G1 X7.1 Y9.0 F200
M05; Laser OFF
G0 X9.3 Y9.0 F3000
M03; Laser ON
G1 X11.1 Y9.0 F200
M05; Laser OFF
G0 X11.1 Y9.2 F3000
M03; Laser ON
G1 X9.1 Y9.2 F200
M05; Laser OFF
G0 X6.9 Y9.2 F3000
M03; Laser ON
G1 X5.1 Y9.2 F200
M05; Laser OFF
G0 X-7.1 Y9.2 F3000
M03; Laser ON
G1 X-8.9 Y9.2 F200
M05; Laser OFF
G0 X-11.1 Y9.2 F3000
M03; Laser ON
G1 X-13.1 Y9.2 F200
M05; Laser OFF
G0 X-12.9 Y9.4 F3000
M03; Laser ON
G1 X-11.1 Y9.4 F200
M05; Laser OFF
G0 X-8.9 Y9.4 F3000
M03; Laser ON
G1 X-7.1 Y9.4 F200
M05; Laser OFF
G0 X5.1 Y9.4 F3000
M03; Laser ON
G1 X6.9 Y9.4 F200
M05; Laser OFF
G0 X9.1 Y9.4 F3000
M03; Laser ON
G1 X10.9 Y9.4 F200
M05; Laser OFF
G0 X10.7 Y9.6 F3000
M03; Laser ON
G1 X8.9 Y9.6 F200
M05; Laser OFF
G0 X6.7 Y9.6 F3000
M03; Laser ON
G1 X4.9 Y9.6 F200
M05; Laser OFF
G0 X-6.9 Y9.6 F3000
M03; Laser ON
G1 X-8.7 Y9.6 F200
M05; Laser OFF
G0 X-10.9 Y9.6 F3000
M03; Laser ON
G1 X-12.7 Y9.6 F200
M05; Laser OFF
G0 X-12.7 Y9.8 F3000
M03; Laser ON
G1 X-10.7 Y9.8 F200
M05; Laser OFF
G0 X-8.5 Y9.8 F3000
M03; Laser ON
G1 X-6.7 Y9.8 F200
M05; Laser OFF
G0 X4.7 Y9.8 F3000
M03; Laser ON
G1 X6.5 Y9.8 F200
M05; Laser OFF
G0 X8.7 Y9.8 F3000
M03; Laser ON
G1 X10.7 Y9.8 F200
M05; Laser OFF
G0 X10.5 Y10.0 F3000
M03; Laser ON
G1 X8.5 Y10.0 F200
M05; Laser OFF
G0 X6.5 Y10.0 F3000
M03; Laser ON
G1 X4.7 Y10.0 F200
M05; Laser OFF
G0 X-6.7 Y10.0 F3000
M03; Laser ON
G1 X-8.5 Y10.0 F200
M05; Laser OFF
G0 X-10.5 Y10.0 F3000
M03; Laser ON
G1 X-12.5 Y10.0 F200
M05; Laser OFF
G0 X-12.5 Y10.2 F3000
M03; Laser ON
G1 X-10.5 Y10.2 F200
M05; Laser OFF
G0 X-8.3 Y10.2 F3000
M03; Laser ON
G1 X-6.5 Y10.2 F200
M05; Laser OFF
G0 X4.5 Y10.2 F3000
M03; Laser ON
G1 X6.3 Y10.2 F200
M05; Laser OFF
G0 X8.5 Y10.2 F3000
M03; Laser ON
G1 X10.3 Y10.2 F200
M05; Laser OFF
G0 X10.3 Y10.4 F3000
M03; Laser ON
G1 X8.3 Y10.4 F200
M05; Laser OFF
G0 X6.3 Y10.4 F3000
M03; Laser ON
G1 X4.5 Y10.4 F200
M05; Laser OFF
G0 X-6.5 Y10.4 F3000
M03; Laser ON
G1 X-8.3 Y10.4 F200
M05; Laser OFF
G0 X-10.3 Y10.4 F3000
M03; Laser ON
G1 X-12.3 Y10.4 F200
M05; Laser OFF
G0 X-12.1 Y10.6 F3000
M03; Laser ON
G1 X-10.1 Y10.6 F200
M05; Laser OFF
G0 X-8.1 Y10.6 F3000
M03; Laser ON
G1 X-6.3 Y10.6 F200
M05; Laser OFF
G0 X4.3 Y10.6 F3000
M03; Laser ON
G1 X6.1 Y10.6 F200
M05; Laser OFF
G0 X8.1 Y10.6 F3000
M03; Laser ON
G1 X10.1 Y10.6 F200
M05; Laser OFF
G0 X9.9 Y10.8 F3000
M03; Laser ON
G1 X7.9 Y10.8 F200
M05; Laser OFF
G0 X6.1 Y10.8 F3000
M03; Laser ON
G1 X4.3 Y10.8 F200
M05; Laser OFF
G0 X-6.3 Y10.8 F3000
M03; Laser ON
G1 X-8.1 Y10.8 F200
M05; Laser OFF
G0 X-9.9 Y10.8 F3000
M03; Laser ON
G1 X-11.9 Y10.8 F200
M05; Laser OFF
G0 X-11.9 Y11.0 F3000
M03; Laser ON
G1 X-9.7 Y11.0 F200
M05; Laser OFF
G0 X-7.9 Y11.0 F3000
M03; Laser ON
G1 X-6.1 Y11.0 F200
M05; Laser OFF
G0 X4.1 Y11.0 F3000
M03; Laser ON
G1 X5.9 Y11.0 F200
M05; Laser OFF
G0 X7.7 Y11.0 F3000
M03; Laser ON
G1 X9.9 Y11.0 F200
M05; Laser OFF
G0 X9.7 Y11.2 F3000
M03; Laser ON
G1 X7.5 Y11.2 F200
M05; Laser OFF
G0 X5.7 Y11.2 F3000
M03; Laser ON
G1 X3.9 Y11.2 F200
M05; Laser OFF
G0 X-5.9 Y11.2 F3000
M03; Laser ON
G1 X-7.7 Y11.2 F200
M05; Laser OFF
G0 X-9.5 Y11.2 F3000
M03; Laser ON
G1 X-11.7 Y11.2 F200
M05; Laser OFF
G0 X-11.5 Y11.4 F3000
M03; Laser ON
G1 X-9.3 Y11.4 F200
M05; Laser OFF
G0 X-7.7 Y11.4 F3000
M03; Laser ON
G1 X-5.9 Y11.4 F200
M05; Laser OFF
G0 X3.9 Y11.4 F3000
M03; Laser ON
G1 X5.7 Y11.4 F200
M05; Laser OFF
G0 X7.3 Y11.4 F3000
M03; Laser ON
G1 X9.5 Y11.4 F200
M05; Laser OFF
G0 X9.3 Y11.6 F3000
M03; Laser ON
G1 X7.1 Y11.6 F200
M05; Laser OFF
G0 X5.5 Y11.6 F3000
M03; Laser ON
G1 X3.7 Y11.6 F200
M05; Laser OFF
G0 X-5.7 Y11.6 F3000
M03; Laser ON
G1 X-7.5 Y11.6 F200
M05; Laser OFF
G0 X-9.1 Y11.6 F3000
M03; Laser ON
G1 X-11.3 Y11.6 F200
M05; Laser OFF
G0 X-11.1 Y11.8 F3000
M03; Laser ON
G1 X-8.9 Y11.8 F200
M05; Laser OFF
G0 X-7.5 Y11.8 F3000
M03; Laser ON
G1 X-5.7 Y11.8 F200
M05; Laser OFF
G0 X3.7 Y11.8 F3000
M03; Laser ON
G1 X5.5 Y11.8 F200
M05; Laser OFF
G0 X6.9 Y11.8 F3000
M03; Laser ON
G1 X9.1 Y11.8 F200
M05; Laser OFF
G0 X8.9 Y12.0 F3000
M03; Laser ON
G1 X6.5 Y12.0 F200
M05; Laser OFF
G0 X5.3 Y12.0 F3000
M03; Laser ON
G1 X3.5 Y12.0 F200
M05; Laser OFF
G0 X-5.5 Y12.0 F3000
M03; Laser ON
G1 X-7.3 Y12.0 F200
M05; Laser OFF
G0 X-8.5 Y12.0 F3000
M03; Laser ON
G1 X-10.9 Y12.0 F200
M05; Laser OFF
G0 X-10.7 Y12.2 F3000
M03; Laser ON
G1 X-8.3 Y12.2 F200
M05; Laser OFF
G0 X-7.3 Y12.2 F3000
M03; Laser ON
G1 X-5.3 Y12.2 F200
M05; Laser OFF
G0 X3.3 Y12.2 F3000
M03; Laser ON
G1 X5.3 Y12.2 F200
M05; Laser OFF
G0 X6.3 Y12.2 F3000
M03; Laser ON
G1 X8.7 Y12.2 F200
M05; Laser OFF
G0 X8.5 Y12.4 F3000
M03; Laser ON
G1 X6.1 Y12.4 F200
M05; Laser OFF
G0 X4.9 Y12.4 F3000
M03; Laser ON
G1 X3.3 Y12.4 F200
M05; Laser OFF
G0 X-5.3 Y12.4 F3000
M03; Laser ON
G1 X-7.1 Y12.4 F200
M05; Laser OFF
G0 X-8.1 Y12.4 F3000
M03; Laser ON
G1 X-10.5 Y12.4 F200
M05; Laser OFF
G0 X-10.3 Y12.6 F3000
M03; Laser ON
G1 X-7.9 Y12.6 F200
M05; Laser OFF
G0 X-6.9 Y12.6 F3000
M03; Laser ON
G1 X-5.1 Y12.6 F200
M05; Laser OFF
G0 X3.1 Y12.6 F3000
M03; Laser ON
G1 X4.7 Y12.6 F200
M05; Laser OFF
G0 X5.7 Y12.6 F3000
M03; Laser ON
G1 X8.3 Y12.6 F200
M05; Laser OFF
G0 X8.1 Y12.8 F3000
M03; Laser ON
G1 X5.3 Y12.8 F200
M05; Laser OFF
G0 X4.3 Y12.8 F3000
M03; Laser ON
G1 X3.1 Y12.8 F200
M05; Laser OFF
G0 X-5.1 Y12.8 F3000
M03; Laser ON
G1 X-6.9 Y12.8 F200
M05; Laser OFF
G0 X-7.7 Y12.8 F3000
M03; Laser ON
G1 X-10.1 Y12.8 F200
M05; Laser OFF
G0 X-9.9 Y13.0 F3000
M03; Laser ON
G1 X-7.7 Y13.0 F200
M05; Laser OFF
G0 X-6.7 Y13.0 F3000
M03; Laser ON
G1 X-4.9 Y13.0 F200
M05; Laser OFF
G0 X2.9 Y13.0 F3000
M03; Laser ON
G1 X3.9 Y13.0 F200
M05; Laser OFF
G0 X5.1 Y13.0 F3000
M03; Laser ON
G1 X7.9 Y13.0 F200
M05; Laser OFF
G0 X7.7 Y13.2 F3000
M03; Laser ON
G1 X4.7 Y13.2 F200
M05; Laser OFF
G0 X3.5 Y13.2 F3000
M03; Laser ON
G1 X2.9 Y13.2 F200
M05; Laser OFF
G0 X-4.9 Y13.2 F3000
M03; Laser ON
G1 X-6.7 Y13.2 F200
M05; Laser OFF
G0 X-7.5 Y13.2 F3000
M03; Laser ON
G1 X-9.7 Y13.2 F200
M05; Laser OFF
G0 X-9.3 Y13.4 F3000
M03; Laser ON
G1 X-7.3 Y13.4 F200
M05; Laser OFF
G0 X-6.5 Y13.4 F3000
M03; Laser ON
G1 X-4.7 Y13.4 F200
M05; Laser OFF
G0 X2.7 Y13.4 F3000
M03; Laser ON
G1 X2.9 Y13.4 F200
M05; Laser OFF
G0 X4.3 Y13.4 F3000
M03; Laser ON
G1 X7.3 Y13.4 F200
M05; Laser OFF
G0 X7.1 Y13.6 F3000
M03; Laser ON
G1 X3.9 Y13.6 F200
M05; Laser OFF
G0 X-4.5 Y13.6 F3000
M03; Laser ON
G1 X-6.5 Y13.6 F200
M05; Laser OFF
G0 X-7.3 Y13.6 F3000
M03; Laser ON
G1 X-9.1 Y13.6 F200
M05; Laser OFF
G0 X-8.9 Y13.8 F3000
M03; Laser ON
G1 X-7.1 Y13.8 F200
M05; Laser OFF
G0 X-6.3 Y13.8 F3000
M03; Laser ON
G1 X-4.5 Y13.8 F200
M05; Laser OFF
G0 X3.3 Y13.8 F3000
M03; Laser ON
G1 X6.9 Y13.8 F200
M05; Laser OFF
G0 X6.5 Y14.0 F3000
M03; Laser ON
G1 X2.7 Y14.0 F200
M05; Laser OFF
G0 X-4.3 Y14.0 F3000
M03; Laser ON
G1 X-6.1 Y14.0 F200
M05; Laser OFF
G0 X-7.1 Y14.0 F3000
M03; Laser ON
G1 X-8.5 Y14.0 F200
M05; Laser OFF
G0 X-8.3 Y14.2 F3000
M03; Laser ON
G1 X-6.9 Y14.2 F200
M05; Laser OFF
G0 X-6.1 Y14.2 F3000
M03; Laser ON
G1 X-4.3 Y14.2 F200
M05; Laser OFF
G0 X2.1 Y14.2 F3000
M03; Laser ON
G1 X6.3 Y14.2 F200
M05; Laser OFF
G0 X5.9 Y14.4 F3000
M03; Laser ON
G1 X1.1 Y14.4 F200
M05; Laser OFF
G0 X-3.1 Y14.4 F3000
M03; Laser ON
G1 X-3.1 Y14.4 F200
M05; Laser OFF
G0 X-4.1 Y14.4 F3000
M03; Laser ON
G1 X-5.9 Y14.4 F200
M05; Laser OFF
G0 X-6.9 Y14.4 F3000
M03; Laser ON
G1 X-7.9 Y14.4 F200
M05; Laser OFF
G0 X-7.5 Y14.6 F3000
M03; Laser ON
G1 X-6.7 Y14.6 F200
M05; Laser OFF
G0 X-5.9 Y14.6 F3000
M03; Laser ON
G1 X-4.1 Y14.6 F200
M05; Laser OFF
G0 X-3.1 Y14.6 F3000
M03; Laser ON
G1 X5.5 Y14.6 F200
M05; Laser OFF
G0 X5.1 Y14.8 F3000
M03; Laser ON
G1 X-2.9 Y14.8 F200
M05; Laser OFF
G0 X-3.9 Y14.8 F3000
M03; Laser ON
G1 X-5.7 Y14.8 F200
M05; Laser OFF
G0 X-6.5 Y14.8 F3000
M03; Laser ON
G1 X-7.1 Y14.8 F200
M05; Laser OFF
G0 X-6.7 Y15.0 F3000
M03; Laser ON
G1 X-6.5 Y15.0 F200
M05; Laser OFF
G0 X-5.5 Y15.0 F3000
M03; Laser ON
G1 X-3.7 Y15.0 F200
M05; Laser OFF
G0 X-2.9 Y15.0 F3000
M03; Laser ON
G1 X4.7 Y15.0 F200
M05; Laser OFF
G0 X4.3 Y15.2 F3000
M03; Laser ON
G1 X-2.7 Y15.2 F200
M05; Laser OFF
G0 X-3.7 Y15.2 F3000
M03; Laser ON
G1 X-5.5 Y15.2 F200
M05; Laser OFF
G0 X-6.3 Y15.2 F3000
M03; Laser ON
G1 X-6.3 Y15.2 F200
M05; Laser OFF
G0 X-5.3 Y15.4 F3000
M03; Laser ON
G1 X-3.5 Y15.4 F200
M05; Laser OFF
G0 X-2.7 Y15.4 F3000
M03; Laser ON
G1 X3.9 Y15.4 F200
M05; Laser OFF
G0 X3.3 Y15.6 F3000
M03; Laser ON
G1 X-2.5 Y15.6 F200
M05; Laser OFF
G0 X-3.5 Y15.6 F3000
M03; Laser ON
G1 X-5.3 Y15.6 F200
M05; Laser OFF
G0 X-5.1 Y15.8 F3000
M03; Laser ON
G1 X-3.3 Y15.8 F200
M05; Laser OFF
G0 X-2.5 Y15.8 F3000
M03; Laser ON
G1 X2.7 Y15.8 F200
M05; Laser OFF
G0 X1.9 Y16.0 F3000
M03; Laser ON
G1 X-2.3 Y16.0 F200
M05; Laser OFF
G0 X-3.3 Y16.0 F3000
M03; Laser ON
G1 X-5.1 Y16.0 F200
M05; Laser OFF
G0 X-4.9 Y16.2 F3000
M03; Laser ON
G1 X-3.1 Y16.2 F200
M05; Laser OFF
G0 X-2.1 Y16.2 F3000
M03; Laser ON
G1 X0.7 Y16.2 F200
M05; Laser OFF
G0 X2.7 Y16.4 F3000
M03; Laser ON
G1 X2.5 Y16.4 F200
M05; Laser OFF
G0 X-2.9 Y16.4 F3000
M03; Laser ON
G1 X-4.7 Y16.4 F200
M05; Laser OFF
G0 X-4.7 Y16.6 F3000
M03; Laser ON
G1 X-2.9 Y16.6 F200
M05; Laser OFF
G0 X1.5 Y16.6 F3000
M03; Laser ON
G1 X2.7 Y16.6 F200
M05; Laser OFF
G0 X2.5 Y16.8 F3000
M03; Laser ON
G1 X0.7 Y16.8 F200
M05; Laser OFF
G0 X-2.7 Y16.8 F3000
M03; Laser ON
G1 X-4.5 Y16.8 F200
M05; Laser OFF
G0 X-4.5 Y17.0 F3000
M03; Laser ON
G1 X-2.7 Y17.0 F200
M05; Laser OFF
G0 X0.7 Y17.0 F3000
M03; Laser ON
G1 X2.5 Y17.0 F200
M05; Laser OFF
G0 X2.3 Y17.2 F3000
M03; Laser ON
G1 X0.5 Y17.2 F200
M05; Laser OFF
G0 X-2.5 Y17.2 F3000
M03; Laser ON
G1 X-4.3 Y17.2 F200
M05; Laser OFF
G0 X-4.3 Y17.4 F3000
M03; Laser ON
G1 X-2.3 Y17.4 F200
M05; Laser OFF
G0 X0.3 Y17.4 F3000
M03; Laser ON
G1 X2.3 Y17.4 F200
M05; Laser OFF
G0 X2.1 Y17.6 F3000
M03; Laser ON
G1 X0.3 Y17.6 F200
M05; Laser OFF
G0 X-2.3 Y17.6 F3000
M03; Laser ON
G1 X-4.1 Y17.6 F200
M05; Laser OFF
G0 X-3.9 Y17.8 F3000
M03; Laser ON
G1 X-2.1 Y17.8 F200
M05; Laser OFF
G0 X0.1 Y17.8 F3000
M03; Laser ON
G1 X1.9 Y17.8 F200
M05; Laser OFF
G0 X1.9 Y18.0 F3000
M03; Laser ON
G1 X-3.9 Y18.0 F200
M05; Laser OFF
G0 X-3.7 Y18.2 F3000
M03; Laser ON
G1 X1.7 Y18.2 F200
M05; Laser OFF
G0 X1.7 Y18.4 F3000
M03; Laser ON
G1 X-3.7 Y18.4 F200
M05; Laser OFF
G0 X-3.5 Y18.6 F3000
M03; Laser ON
G1 X1.5 Y18.6 F200
M05; Laser OFF
G0 X1.3 Y18.8 F3000
M03; Laser ON
G1 X-3.3 Y18.8 F200
M05; Laser OFF
G0 X-3.3 Y19.0 F3000
M03; Laser ON
G1 X1.3 Y19.0 F200
M05; Laser OFF
G0 X1.1 Y19.2 F3000
M03; Laser ON
G1 X-3.1 Y19.2 F200
M05; Laser OFF
G0 X-3.1 Y19.4 F3000
M03; Laser ON
G1 X1.1 Y19.4 F200
M05; Laser OFF
G0 X0.9 Y19.6 F3000
M03; Laser ON
G1 X-2.9 Y19.6 F200
M05; Laser OFF
M05; Laser OFF
G28; home all axes
