; Generated with:
; "BEC Gcode generator"
; by ATOM 3D Printer
;
;
;
G28; home all axes
G21; Set units to millimeters
G90; Use absolute coordinates
G92; Coordinate Offset
G0 Z9.0 F10000
G0 X-0.9 Y-16.85 F3000
M03; Laser ON
G1 X-4.0 Y-16.85 F200
M05; Laser OFF
G0 X-5.1 Y-16.75 F3000
M03; Laser ON
G1 X0.2 Y-16.75 F200
M05; Laser OFF
G0 X0.9 Y-16.65 F3000
M03; Laser ON
G1 X-5.8 Y-16.65 F200
M05; Laser OFF
G0 X-6.4 Y-16.55 F3000
M03; Laser ON
G1 X1.5 Y-16.55 F200
M05; Laser OFF
G0 X2.0 Y-16.45 F3000
M03; Laser ON
G1 X-6.9 Y-16.45 F200
M05; Laser OFF
G0 X-7.4 Y-16.35 F3000
M03; Laser ON
G1 X2.4 Y-16.35 F200
M05; Laser OFF
G0 X2.8 Y-16.25 F3000
M03; Laser ON
G1 X-7.8 Y-16.25 F200
M05; Laser OFF
G0 X-8.1 Y-16.15 F3000
M03; Laser ON
G1 X3.2 Y-16.15 F200
M05; Laser OFF
G0 X3.5 Y-16.05 F3000
M03; Laser ON
G1 X-8.5 Y-16.05 F200
M05; Laser OFF
G0 X-8.8 Y-15.95 F3000
M03; Laser ON
G1 X3.8 Y-15.95 F200
M05; Laser OFF
G0 X4.1 Y-15.85 F3000
M03; Laser ON
G1 X-9.1 Y-15.85 F200
M05; Laser OFF
G0 X-9.4 Y-15.75 F3000
M03; Laser ON
G1 X4.4 Y-15.75 F200
M05; Laser OFF
G0 X4.7 Y-15.65 F3000
M03; Laser ON
G1 X-9.6 Y-15.65 F200
M05; Laser OFF
G0 X-9.9 Y-15.55 F3000
M03; Laser ON
G1 X4.9 Y-15.55 F200
M05; Laser OFF
G0 X5.2 Y-15.45 F3000
M03; Laser ON
G1 X-10.1 Y-15.45 F200
M05; Laser OFF
G0 X-10.3 Y-15.35 F3000
M03; Laser ON
G1 X5.4 Y-15.35 F200
M05; Laser OFF
G0 X5.6 Y-15.25 F3000
M03; Laser ON
G1 X-10.6 Y-15.25 F200
M05; Laser OFF
G0 X-10.8 Y-15.15 F3000
M03; Laser ON
G1 X5.8 Y-15.15 F200
M05; Laser OFF
G0 X6.1 Y-15.05 F3000
M03; Laser ON
G1 X-11.0 Y-15.05 F200
M05; Laser OFF
G0 X-11.2 Y-14.95 F3000
M03; Laser ON
G1 X6.3 Y-14.95 F200
M05; Laser OFF
G0 X6.5 Y-14.85 F3000
M03; Laser ON
G1 X-11.4 Y-14.85 F200
M05; Laser OFF
G0 X-11.6 Y-14.75 F3000
M03; Laser ON
G1 X6.6 Y-14.75 F200
M05; Laser OFF
G0 X6.8 Y-14.65 F3000
M03; Laser ON
G1 X0.7 Y-14.65 F200
M05; Laser OFF
G0 X-2.2 Y-14.65 F3000
M03; Laser ON
G1 X-11.7 Y-14.65 F200
M05; Laser OFF
G0 X-11.9 Y-14.55 F3000
M03; Laser ON
G1 X-2.9 Y-14.55 F200
M05; Laser OFF
G0 X1.3 Y-14.55 F3000
M03; Laser ON
G1 X7.0 Y-14.55 F200
M05; Laser OFF
G0 X7.2 Y-14.45 F3000
M03; Laser ON
G1 X1.8 Y-14.45 F200
M05; Laser OFF
G0 X-3.4 Y-14.45 F3000
M03; Laser ON
G1 X-12.1 Y-14.45 F200
M05; Laser OFF
G0 X-12.2 Y-14.35 F3000
M03; Laser ON
G1 X-3.9 Y-14.35 F200
M05; Laser OFF
G0 X2.1 Y-14.35 F3000
M03; Laser ON
G1 X7.3 Y-14.35 F200
M05; Laser OFF
G0 X7.5 Y-14.25 F3000
M03; Laser ON
G1 X2.5 Y-14.25 F200
M05; Laser OFF
G0 X-4.2 Y-14.25 F3000
M03; Laser ON
G1 X-12.4 Y-14.25 F200
M05; Laser OFF
G0 X-12.5 Y-14.15 F3000
M03; Laser ON
G1 X-4.6 Y-14.15 F200
M05; Laser OFF
G0 X2.7 Y-14.15 F3000
M03; Laser ON
G1 X7.7 Y-14.15 F200
M05; Laser OFF
G0 X7.8 Y-14.05 F3000
M03; Laser ON
G1 X3.0 Y-14.05 F200
M05; Laser OFF
G0 X-4.9 Y-14.05 F3000
M03; Laser ON
G1 X-12.7 Y-14.05 F200
M05; Laser OFF
G0 X-12.8 Y-13.95 F3000
M03; Laser ON
G1 X-5.1 Y-13.95 F200
M05; Laser OFF
G0 X3.2 Y-13.95 F3000
M03; Laser ON
G1 X8.0 Y-13.95 F200
M05; Laser OFF
G0 X8.1 Y-13.85 F3000
M03; Laser ON
G1 X3.5 Y-13.85 F200
M05; Laser OFF
G0 X-5.4 Y-13.85 F3000
M03; Laser ON
G1 X-13.0 Y-13.85 F200
M05; Laser OFF
G0 X-13.1 Y-13.75 F3000
M03; Laser ON
G1 X-5.6 Y-13.75 F200
M05; Laser OFF
G0 X3.7 Y-13.75 F3000
M03; Laser ON
G1 X8.3 Y-13.75 F200
M05; Laser OFF
G0 X8.4 Y-13.65 F3000
M03; Laser ON
G1 X3.9 Y-13.65 F200
M05; Laser OFF
G0 X-5.9 Y-13.65 F3000
M03; Laser ON
G1 X-13.3 Y-13.65 F200
M05; Laser OFF
G0 X-13.4 Y-13.55 F3000
M03; Laser ON
G1 X-6.1 Y-13.55 F200
M05; Laser OFF
G0 X4.0 Y-13.55 F3000
M03; Laser ON
G1 X8.5 Y-13.55 F200
M05; Laser OFF
G0 X8.7 Y-13.45 F3000
M03; Laser ON
G1 X4.2 Y-13.45 F200
M05; Laser OFF
G0 X-6.3 Y-13.45 F3000
M03; Laser ON
G1 X-13.5 Y-13.45 F200
M05; Laser OFF
G0 X-13.7 Y-13.35 F3000
M03; Laser ON
G1 X-6.5 Y-13.35 F200
M05; Laser OFF
G0 X4.4 Y-13.35 F3000
M03; Laser ON
G1 X8.8 Y-13.35 F200
M05; Laser OFF
G0 X9.0 Y-13.25 F3000
M03; Laser ON
G1 X4.5 Y-13.25 F200
M05; Laser OFF
G0 X-6.7 Y-13.25 F3000
M03; Laser ON
G1 X-13.8 Y-13.25 F200
M05; Laser OFF
G0 X-13.9 Y-13.15 F3000
M03; Laser ON
G1 X-6.9 Y-13.15 F200
M05; Laser OFF
G0 X4.7 Y-13.15 F3000
M03; Laser ON
G1 X9.1 Y-13.15 F200
M05; Laser OFF
G0 X9.2 Y-13.05 F3000
M03; Laser ON
G1 X4.8 Y-13.05 F200
M05; Laser OFF
G0 X-7.0 Y-13.05 F3000
M03; Laser ON
G1 X-14.0 Y-13.05 F200
M05; Laser OFF
G0 X-14.2 Y-12.95 F3000
M03; Laser ON
G1 X-7.2 Y-12.95 F200
M05; Laser OFF
G0 X5.0 Y-12.95 F3000
M03; Laser ON
G1 X9.3 Y-12.95 F200
M05; Laser OFF
G0 X9.4 Y-12.85 F3000
M03; Laser ON
G1 X5.1 Y-12.85 F200
M05; Laser OFF
G0 X-7.4 Y-12.85 F3000
M03; Laser ON
G1 X-14.3 Y-12.85 F200
M05; Laser OFF
G0 X-14.4 Y-12.75 F3000
M03; Laser ON
G1 X-7.5 Y-12.75 F200
M05; Laser OFF
G0 X5.2 Y-12.75 F3000
M03; Laser ON
G1 X9.6 Y-12.75 F200
M05; Laser OFF
G0 X9.7 Y-12.65 F3000
M03; Laser ON
G1 X5.3 Y-12.65 F200
M05; Laser OFF
G0 X-7.7 Y-12.65 F3000
M03; Laser ON
G1 X-14.5 Y-12.65 F200
M05; Laser OFF
G0 X-14.6 Y-12.55 F3000
M03; Laser ON
G1 X-7.8 Y-12.55 F200
M05; Laser OFF
G0 X5.5 Y-12.55 F3000
M03; Laser ON
G1 X9.8 Y-12.55 F200
M05; Laser OFF
G0 X9.9 Y-12.45 F3000
M03; Laser ON
G1 X5.6 Y-12.45 F200
M05; Laser OFF
G0 X-7.9 Y-12.45 F3000
M03; Laser ON
G1 X-14.7 Y-12.45 F200
M05; Laser OFF
G0 X-14.8 Y-12.35 F3000
M03; Laser ON
G1 X-8.1 Y-12.35 F200
M05; Laser OFF
G0 X5.7 Y-12.35 F3000
M03; Laser ON
G1 X10.0 Y-12.35 F200
M05; Laser OFF
G0 X10.1 Y-12.25 F3000
M03; Laser ON
G1 X5.8 Y-12.25 F200
M05; Laser OFF
G0 X-8.2 Y-12.25 F3000
M03; Laser ON
G1 X-14.9 Y-12.25 F200
M05; Laser OFF
G0 X-15.0 Y-12.15 F3000
M03; Laser ON
G1 X-8.3 Y-12.15 F200
M05; Laser OFF
G0 X5.9 Y-12.15 F3000
M03; Laser ON
G1 X10.2 Y-12.15 F200
M05; Laser OFF
G0 X10.3 Y-12.05 F3000
M03; Laser ON
G1 X6.0 Y-12.05 F200
M05; Laser OFF
G0 X-8.5 Y-12.05 F3000
M03; Laser ON
G1 X-15.1 Y-12.05 F200
M05; Laser OFF
G0 X-15.2 Y-11.95 F3000
M03; Laser ON
G1 X-8.6 Y-11.95 F200
M05; Laser OFF
G0 X6.1 Y-11.95 F3000
M03; Laser ON
G1 X10.4 Y-11.95 F200
M05; Laser OFF
G0 X10.5 Y-11.85 F3000
M03; Laser ON
G1 X6.2 Y-11.85 F200
M05; Laser OFF
G0 X-8.7 Y-11.85 F3000
M03; Laser ON
G1 X-15.3 Y-11.85 F200
M05; Laser OFF
G0 X-15.4 Y-11.75 F3000
M03; Laser ON
G1 X-8.8 Y-11.75 F200
M05; Laser OFF
G0 X6.3 Y-11.75 F3000
M03; Laser ON
G1 X10.6 Y-11.75 F200
M05; Laser OFF
G0 X10.7 Y-11.65 F3000
M03; Laser ON
G1 X6.4 Y-11.65 F200
M05; Laser OFF
G0 X-8.9 Y-11.65 F3000
M03; Laser ON
G1 X-15.5 Y-11.65 F200
M05; Laser OFF
G0 X-15.6 Y-11.55 F3000
M03; Laser ON
G1 X-9.0 Y-11.55 F200
M05; Laser OFF
G0 X6.4 Y-11.55 F3000
M03; Laser ON
G1 X10.8 Y-11.55 F200
M05; Laser OFF
G0 X10.9 Y-11.45 F3000
M03; Laser ON
G1 X6.5 Y-11.45 F200
M05; Laser OFF
G0 X-9.1 Y-11.45 F3000
M03; Laser ON
G1 X-15.7 Y-11.45 F200
M05; Laser OFF
G0 X-15.8 Y-11.35 F3000
M03; Laser ON
G1 X-9.2 Y-11.35 F200
M05; Laser OFF
G0 X6.6 Y-11.35 F3000
M03; Laser ON
G1 X11.0 Y-11.35 F200
M05; Laser OFF
G0 X11.1 Y-11.25 F3000
M03; Laser ON
G1 X6.7 Y-11.25 F200
M05; Laser OFF
G0 X-9.3 Y-11.25 F3000
M03; Laser ON
G1 X-15.8 Y-11.25 F200
M05; Laser OFF
G0 X-15.9 Y-11.15 F3000
M03; Laser ON
G1 X-9.4 Y-11.15 F200
M05; Laser OFF
G0 X6.8 Y-11.15 F3000
M03; Laser ON
G1 X11.2 Y-11.15 F200
M05; Laser OFF
G0 X11.3 Y-11.05 F3000
M03; Laser ON
G1 X6.8 Y-11.05 F200
M05; Laser OFF
G0 X-9.5 Y-11.05 F3000
M03; Laser ON
G1 X-16.0 Y-11.05 F200
M05; Laser OFF
G0 X-16.1 Y-10.95 F3000
M03; Laser ON
G1 X-9.6 Y-10.95 F200
M05; Laser OFF
G0 X6.9 Y-10.95 F3000
M03; Laser ON
G1 X11.4 Y-10.95 F200
M05; Laser OFF
G0 X11.4 Y-10.85 F3000
M03; Laser ON
G1 X7.0 Y-10.85 F200
M05; Laser OFF
G0 X-9.7 Y-10.85 F3000
M03; Laser ON
G1 X-16.2 Y-10.85 F200
M05; Laser OFF
G0 X-16.2 Y-10.75 F3000
M03; Laser ON
G1 X-9.8 Y-10.75 F200
M05; Laser OFF
G0 X7.0 Y-10.75 F3000
M03; Laser ON
G1 X11.5 Y-10.75 F200
M05; Laser OFF
G0 X11.6 Y-10.65 F3000
M03; Laser ON
G1 X7.1 Y-10.65 F200
M05; Laser OFF
G0 X-9.9 Y-10.65 F3000
M03; Laser ON
G1 X-16.3 Y-10.65 F200
M05; Laser OFF
G0 X-16.4 Y-10.55 F3000
M03; Laser ON
G1 X-10.0 Y-10.55 F200
M05; Laser OFF
G0 X7.2 Y-10.55 F3000
M03; Laser ON
G1 X11.7 Y-10.55 F200
M05; Laser OFF
G0 X11.8 Y-10.45 F3000
M03; Laser ON
G1 X7.2 Y-10.45 F200
M05; Laser OFF
G0 X-10.1 Y-10.45 F3000
M03; Laser ON
G1 X-16.5 Y-10.45 F200
M05; Laser OFF
G0 X-16.5 Y-10.35 F3000
M03; Laser ON
G1 X-10.2 Y-10.35 F200
M05; Laser OFF
G0 X7.3 Y-10.35 F3000
M03; Laser ON
G1 X11.8 Y-10.35 F200
M05; Laser OFF
G0 X11.9 Y-10.25 F3000
M03; Laser ON
G1 X7.4 Y-10.25 F200
M05; Laser OFF
G0 X-10.3 Y-10.25 F3000
M03; Laser ON
G1 X-16.6 Y-10.25 F200
M05; Laser OFF
G0 X-16.7 Y-10.15 F3000
M03; Laser ON
G1 X-10.3 Y-10.15 F200
M05; Laser OFF
G0 X7.4 Y-10.15 F3000
M03; Laser ON
G1 X12.0 Y-10.15 F200
M05; Laser OFF
G0 X12.1 Y-10.05 F3000
M03; Laser ON
G1 X7.5 Y-10.05 F200
M05; Laser OFF
G0 X-10.4 Y-10.05 F3000
M03; Laser ON
G1 X-16.8 Y-10.05 F200
M05; Laser OFF
G0 X-16.8 Y-9.95 F3000
M03; Laser ON
G1 X-10.5 Y-9.95 F200
M05; Laser OFF
G0 X7.5 Y-9.95 F3000
M03; Laser ON
G1 X12.1 Y-9.95 F200
M05; Laser OFF
G0 X12.2 Y-9.85 F3000
M03; Laser ON
G1 X7.6 Y-9.85 F200
M05; Laser OFF
G0 X-10.6 Y-9.85 F3000
M03; Laser ON
G1 X-16.9 Y-9.85 F200
M05; Laser OFF
G0 X-17.0 Y-9.75 F3000
M03; Laser ON
G1 X-10.6 Y-9.75 F200
M05; Laser OFF
G0 X7.6 Y-9.75 F3000
M03; Laser ON
G1 X12.3 Y-9.75 F200
M05; Laser OFF
G0 X12.3 Y-9.65 F3000
M03; Laser ON
G1 X7.7 Y-9.65 F200
M05; Laser OFF
G0 X-10.7 Y-9.65 F3000
M03; Laser ON
G1 X-17.0 Y-9.65 F200
M05; Laser OFF
G0 X-17.1 Y-9.55 F3000
M03; Laser ON
G1 X-10.8 Y-9.55 F200
M05; Laser OFF
G0 X7.8 Y-9.55 F3000
M03; Laser ON
G1 X12.4 Y-9.55 F200
M05; Laser OFF
G0 X12.5 Y-9.45 F3000
M03; Laser ON
G1 X7.8 Y-9.45 F200
M05; Laser OFF
G0 X-10.9 Y-9.45 F3000
M03; Laser ON
G1 X-17.2 Y-9.45 F200
M05; Laser OFF
G0 X-17.2 Y-9.35 F3000
M03; Laser ON
G1 X-10.9 Y-9.35 F200
M05; Laser OFF
G0 X7.9 Y-9.35 F3000
M03; Laser ON
G1 X12.5 Y-9.35 F200
M05; Laser OFF
G0 X12.6 Y-9.25 F3000
M03; Laser ON
G1 X7.9 Y-9.25 F200
M05; Laser OFF
G0 X-11.0 Y-9.25 F3000
M03; Laser ON
G1 X-17.3 Y-9.25 F200
M05; Laser OFF
G0 X-17.3 Y-9.15 F3000
M03; Laser ON
G1 X-11.1 Y-9.15 F200
M05; Laser OFF
G0 X7.9 Y-9.15 F3000
M03; Laser ON
G1 X12.7 Y-9.15 F200
M05; Laser OFF
G0 X12.7 Y-9.05 F3000
M03; Laser ON
G1 X8.0 Y-9.05 F200
M05; Laser OFF
G0 X-11.1 Y-9.05 F3000
M03; Laser ON
G1 X-17.4 Y-9.05 F200
M05; Laser OFF
G0 X-17.5 Y-8.95 F3000
M03; Laser ON
G1 X-11.2 Y-8.95 F200
M05; Laser OFF
G0 X8.0 Y-8.95 F3000
M03; Laser ON
G1 X12.8 Y-8.95 F200
M05; Laser OFF
G0 X12.9 Y-8.85 F3000
M03; Laser ON
G1 X8.1 Y-8.85 F200
M05; Laser OFF
G0 X-11.3 Y-8.85 F3000
M03; Laser ON
G1 X-17.5 Y-8.85 F200
M05; Laser OFF
G0 X-17.6 Y-8.75 F3000
M03; Laser ON
G1 X-11.3 Y-8.75 F200
M05; Laser OFF
G0 X8.1 Y-8.75 F3000
M03; Laser ON
G1 X12.9 Y-8.75 F200
M05; Laser OFF
G0 X13.0 Y-8.65 F3000
M03; Laser ON
G1 X8.2 Y-8.65 F200
M05; Laser OFF
G0 X-11.4 Y-8.65 F3000
M03; Laser ON
G1 X-17.6 Y-8.65 F200
M05; Laser OFF
G0 X-17.7 Y-8.55 F3000
M03; Laser ON
G1 X-11.5 Y-8.55 F200
M05; Laser OFF
G0 X8.2 Y-8.55 F3000
M03; Laser ON
G1 X13.0 Y-8.55 F200
M05; Laser OFF
G0 X13.1 Y-8.45 F3000
M03; Laser ON
G1 X8.2 Y-8.45 F200
M05; Laser OFF
G0 X-11.5 Y-8.45 F3000
M03; Laser ON
G1 X-17.7 Y-8.45 F200
M05; Laser OFF
G0 X-17.8 Y-8.35 F3000
M03; Laser ON
G1 X-11.6 Y-8.35 F200
M05; Laser OFF
G0 X8.3 Y-8.35 F3000
M03; Laser ON
G1 X13.2 Y-8.35 F200
M05; Laser OFF
G0 X13.2 Y-8.25 F3000
M03; Laser ON
G1 X8.3 Y-8.25 F200
M05; Laser OFF
G0 X-11.6 Y-8.25 F3000
M03; Laser ON
G1 X-17.8 Y-8.25 F200
M05; Laser OFF
G0 X-17.9 Y-8.15 F3000
M03; Laser ON
G1 X-11.7 Y-8.15 F200
M05; Laser OFF
G0 X8.4 Y-8.15 F3000
M03; Laser ON
G1 X13.3 Y-8.15 F200
M05; Laser OFF
G0 X13.3 Y-8.05 F3000
M03; Laser ON
G1 X8.4 Y-8.05 F200
M05; Laser OFF
G0 X-11.7 Y-8.05 F3000
M03; Laser ON
G1 X-18.0 Y-8.05 F200
M05; Laser OFF
G0 X-18.0 Y-7.95 F3000
M03; Laser ON
G1 X-11.8 Y-7.95 F200
M05; Laser OFF
G0 X8.4 Y-7.95 F3000
M03; Laser ON
G1 X13.4 Y-7.95 F200
M05; Laser OFF
G0 X13.4 Y-7.85 F3000
M03; Laser ON
G1 X8.5 Y-7.85 F200
M05; Laser OFF
G0 X-11.8 Y-7.85 F3000
M03; Laser ON
G1 X-18.1 Y-7.85 F200
M05; Laser OFF
G0 X-18.1 Y-7.75 F3000
M03; Laser ON
G1 X-11.9 Y-7.75 F200
M05; Laser OFF
G0 X8.5 Y-7.75 F3000
M03; Laser ON
G1 X13.5 Y-7.75 F200
M05; Laser OFF
G0 X13.5 Y-7.65 F3000
M03; Laser ON
G1 X8.5 Y-7.65 F200
M05; Laser OFF
G0 X-11.9 Y-7.65 F3000
M03; Laser ON
G1 X-18.1 Y-7.65 F200
M05; Laser OFF
G0 X-18.2 Y-7.55 F3000
M03; Laser ON
G1 X-12.0 Y-7.55 F200
M05; Laser OFF
G0 X8.6 Y-7.55 F3000
M03; Laser ON
G1 X13.6 Y-7.55 F200
M05; Laser OFF
G0 X13.6 Y-7.45 F3000
M03; Laser ON
G1 X8.6 Y-7.45 F200
M05; Laser OFF
G0 X-12.0 Y-7.45 F3000
M03; Laser ON
G1 X-18.2 Y-7.45 F200
M05; Laser OFF
G0 X-18.3 Y-7.35 F3000
M03; Laser ON
G1 X-12.1 Y-7.35 F200
M05; Laser OFF
G0 X8.6 Y-7.35 F3000
M03; Laser ON
G1 X13.7 Y-7.35 F200
M05; Laser OFF
G0 X13.7 Y-7.25 F3000
M03; Laser ON
G1 X8.7 Y-7.25 F200
M05; Laser OFF
G0 X-12.1 Y-7.25 F3000
M03; Laser ON
G1 X-18.3 Y-7.25 F200
M05; Laser OFF
G0 X-18.4 Y-7.15 F3000
M03; Laser ON
G1 X-12.2 Y-7.15 F200
M05; Laser OFF
G0 X8.7 Y-7.15 F3000
M03; Laser ON
G1 X13.8 Y-7.15 F200
M05; Laser OFF
G0 X13.8 Y-7.05 F3000
M03; Laser ON
G1 X8.7 Y-7.05 F200
M05; Laser OFF
G0 X-12.2 Y-7.05 F3000
M03; Laser ON
G1 X-18.4 Y-7.05 F200
M05; Laser OFF
G0 X-18.5 Y-6.95 F3000
M03; Laser ON
G1 X-12.3 Y-6.95 F200
M05; Laser OFF
G0 X8.7 Y-6.95 F3000
M03; Laser ON
G1 X13.9 Y-6.95 F200
M05; Laser OFF
G0 X13.9 Y-6.85 F3000
M03; Laser ON
G1 X8.8 Y-6.85 F200
M05; Laser OFF
G0 X-12.3 Y-6.85 F3000
M03; Laser ON
G1 X-18.5 Y-6.85 F200
M05; Laser OFF
G0 X-18.5 Y-6.75 F3000
M03; Laser ON
G1 X-12.4 Y-6.75 F200
M05; Laser OFF
G0 X8.8 Y-6.75 F3000
M03; Laser ON
G1 X14.0 Y-6.75 F200
M05; Laser OFF
G0 X14.0 Y-6.65 F3000
M03; Laser ON
G1 X8.8 Y-6.65 F200
M05; Laser OFF
G0 X-12.4 Y-6.65 F3000
M03; Laser ON
G1 X-18.6 Y-6.65 F200
M05; Laser OFF
G0 X-18.6 Y-6.55 F3000
M03; Laser ON
G1 X-12.5 Y-6.55 F200
M05; Laser OFF
G0 X8.9 Y-6.55 F3000
M03; Laser ON
G1 X14.0 Y-6.55 F200
M05; Laser OFF
G0 X14.1 Y-6.45 F3000
M03; Laser ON
G1 X8.9 Y-6.45 F200
M05; Laser OFF
G0 X-12.5 Y-6.45 F3000
M03; Laser ON
G1 X-18.7 Y-6.45 F200
M05; Laser OFF
G0 X-18.7 Y-6.35 F3000
M03; Laser ON
G1 X-12.5 Y-6.35 F200
M05; Laser OFF
G0 X8.9 Y-6.35 F3000
M03; Laser ON
G1 X14.1 Y-6.35 F200
M05; Laser OFF
G0 X14.2 Y-6.25 F3000
M03; Laser ON
G1 X8.9 Y-6.25 F200
M05; Laser OFF
G0 X-12.6 Y-6.25 F3000
M03; Laser ON
G1 X-18.7 Y-6.25 F200
M05; Laser OFF
G0 X-18.8 Y-6.15 F3000
M03; Laser ON
G1 X-12.6 Y-6.15 F200
M05; Laser OFF
G0 X8.9 Y-6.15 F3000
M03; Laser ON
G1 X14.2 Y-6.15 F200
M05; Laser OFF
G0 X14.2 Y-6.05 F3000
M03; Laser ON
G1 X9.0 Y-6.05 F200
M05; Laser OFF
G0 X-12.7 Y-6.05 F3000
M03; Laser ON
G1 X-18.8 Y-6.05 F200
M05; Laser OFF
G0 X-18.8 Y-5.95 F3000
M03; Laser ON
G1 X-12.7 Y-5.95 F200
M05; Laser OFF
G0 X9.0 Y-5.95 F3000
M03; Laser ON
G1 X14.3 Y-5.95 F200
M05; Laser OFF
G0 X14.3 Y-5.85 F3000
M03; Laser ON
G1 X9.0 Y-5.85 F200
M05; Laser OFF
G0 X-12.7 Y-5.85 F3000
M03; Laser ON
G1 X-18.9 Y-5.85 F200
M05; Laser OFF
G0 X-18.9 Y-5.75 F3000
M03; Laser ON
G1 X-12.8 Y-5.75 F200
M05; Laser OFF
G0 X9.0 Y-5.75 F3000
M03; Laser ON
G1 X14.3 Y-5.75 F200
M05; Laser OFF
G0 X14.4 Y-5.65 F3000
M03; Laser ON
G1 X9.1 Y-5.65 F200
M05; Laser OFF
G0 X-12.8 Y-5.65 F3000
M03; Laser ON
G1 X-18.9 Y-5.65 F200
M05; Laser OFF
G0 X-19.0 Y-5.55 F3000
M03; Laser ON
G1 X-12.8 Y-5.55 F200
M05; Laser OFF
G0 X9.1 Y-5.55 F3000
M03; Laser ON
G1 X14.4 Y-5.55 F200
M05; Laser OFF
G0 X14.5 Y-5.45 F3000
M03; Laser ON
G1 X9.1 Y-5.45 F200
M05; Laser OFF
G0 X-12.9 Y-5.45 F3000
M03; Laser ON
G1 X-19.0 Y-5.45 F200
M05; Laser OFF
G0 X-19.0 Y-5.35 F3000
M03; Laser ON
G1 X-12.9 Y-5.35 F200
M05; Laser OFF
G0 X9.1 Y-5.35 F3000
M03; Laser ON
G1 X14.5 Y-5.35 F200
M05; Laser OFF
G0 X14.5 Y-5.25 F3000
M03; Laser ON
G1 X9.1 Y-5.25 F200
M05; Laser OFF
G0 X-12.9 Y-5.25 F3000
M03; Laser ON
G1 X-19.1 Y-5.25 F200
M05; Laser OFF
G0 X-19.1 Y-5.15 F3000
M03; Laser ON
G1 X-13.0 Y-5.15 F200
M05; Laser OFF
G0 X9.1 Y-5.15 F3000
M03; Laser ON
G1 X14.6 Y-5.15 F200
M05; Laser OFF
G0 X14.6 Y-5.05 F3000
M03; Laser ON
G1 X9.2 Y-5.05 F200
M05; Laser OFF
G0 X-13.0 Y-5.05 F3000
M03; Laser ON
G1 X-19.1 Y-5.05 F200
M05; Laser OFF
G0 X-19.2 Y-4.95 F3000
M03; Laser ON
G1 X-13.0 Y-4.95 F200
M05; Laser OFF
G0 X9.2 Y-4.95 F3000
M03; Laser ON
G1 X14.6 Y-4.95 F200
M05; Laser OFF
G0 X14.6 Y-4.85 F3000
M03; Laser ON
G1 X9.2 Y-4.85 F200
M05; Laser OFF
G0 X-13.1 Y-4.85 F3000
M03; Laser ON
G1 X-19.2 Y-4.85 F200
M05; Laser OFF
G0 X-19.2 Y-4.75 F3000
M03; Laser ON
G1 X-13.1 Y-4.75 F200
M05; Laser OFF
G0 X9.2 Y-4.75 F3000
M03; Laser ON
G1 X14.7 Y-4.75 F200
M05; Laser OFF
G0 X14.7 Y-4.65 F3000
M03; Laser ON
G1 X9.2 Y-4.65 F200
M05; Laser OFF
G0 X-13.1 Y-4.65 F3000
M03; Laser ON
G1 X-19.2 Y-4.65 F200
M05; Laser OFF
G0 X-19.3 Y-4.55 F3000
M03; Laser ON
G1 X-13.2 Y-4.55 F200
M05; Laser OFF
G0 X9.2 Y-4.55 F3000
M03; Laser ON
G1 X14.7 Y-4.55 F200
M05; Laser OFF
G0 X14.8 Y-4.45 F3000
M03; Laser ON
G1 X9.3 Y-4.45 F200
M05; Laser OFF
G0 X-13.2 Y-4.45 F3000
M03; Laser ON
G1 X-19.3 Y-4.45 F200
M05; Laser OFF
G0 X-19.3 Y-4.35 F3000
M03; Laser ON
G1 X-13.2 Y-4.35 F200
M05; Laser OFF
G0 X9.3 Y-4.35 F3000
M03; Laser ON
G1 X14.8 Y-4.35 F200
M05; Laser OFF
G0 X14.8 Y-4.25 F3000
M03; Laser ON
G1 X9.3 Y-4.25 F200
M05; Laser OFF
G0 X-13.2 Y-4.25 F3000
M03; Laser ON
G1 X-19.3 Y-4.25 F200
M05; Laser OFF
G0 X-19.4 Y-4.15 F3000
M03; Laser ON
G1 X-13.3 Y-4.15 F200
M05; Laser OFF
G0 X9.3 Y-4.15 F3000
M03; Laser ON
G1 X14.8 Y-4.15 F200
M05; Laser OFF
G0 X14.9 Y-4.05 F3000
M03; Laser ON
G1 X9.3 Y-4.05 F200
M05; Laser OFF
G0 X-13.3 Y-4.05 F3000
M03; Laser ON
G1 X-19.4 Y-4.05 F200
M05; Laser OFF
G0 X-19.4 Y-3.95 F3000
M03; Laser ON
G1 X-13.3 Y-3.95 F200
M05; Laser OFF
G0 X9.3 Y-3.95 F3000
M03; Laser ON
G1 X14.9 Y-3.95 F200
M05; Laser OFF
G0 X14.9 Y-3.85 F3000
M03; Laser ON
G1 X9.3 Y-3.85 F200
M05; Laser OFF
G0 X-13.4 Y-3.85 F3000
M03; Laser ON
G1 X-19.4 Y-3.85 F200
M05; Laser OFF
G0 X-19.5 Y-3.75 F3000
M03; Laser ON
G1 X-13.4 Y-3.75 F200
M05; Laser OFF
G0 X9.3 Y-3.75 F3000
M03; Laser ON
G1 X14.9 Y-3.75 F200
M05; Laser OFF
G0 X15.0 Y-3.65 F3000
M03; Laser ON
G1 X9.4 Y-3.65 F200
M05; Laser OFF
G0 X-13.4 Y-3.65 F3000
M03; Laser ON
G1 X-19.5 Y-3.65 F200
M05; Laser OFF
G0 X-19.5 Y-3.55 F3000
M03; Laser ON
G1 X-13.4 Y-3.55 F200
M05; Laser OFF
G0 X9.4 Y-3.55 F3000
M03; Laser ON
G1 X15.0 Y-3.55 F200
M05; Laser OFF
G0 X15.0 Y-3.45 F3000
M03; Laser ON
G1 X9.4 Y-3.45 F200
M05; Laser OFF
G0 X-13.4 Y-3.45 F3000
M03; Laser ON
G1 X-19.5 Y-3.45 F200
M05; Laser OFF
G0 X-19.5 Y-3.35 F3000
M03; Laser ON
G1 X-13.5 Y-3.35 F200
M05; Laser OFF
G0 X9.4 Y-3.35 F3000
M03; Laser ON
G1 X15.0 Y-3.35 F200
M05; Laser OFF
G0 X15.1 Y-3.25 F3000
M03; Laser ON
G1 X9.4 Y-3.25 F200
M05; Laser OFF
G0 X-13.5 Y-3.25 F3000
M03; Laser ON
G1 X-19.6 Y-3.25 F200
M05; Laser OFF
G0 X-19.6 Y-3.15 F3000
M03; Laser ON
G1 X-13.5 Y-3.15 F200
M05; Laser OFF
G0 X9.4 Y-3.15 F3000
M03; Laser ON
G1 X15.1 Y-3.15 F200
M05; Laser OFF
G0 X15.1 Y-3.05 F3000
M03; Laser ON
G1 X9.4 Y-3.05 F200
M05; Laser OFF
G0 X-13.5 Y-3.05 F3000
M03; Laser ON
G1 X-19.6 Y-3.05 F200
M05; Laser OFF
G0 X-19.6 Y-2.95 F3000
M03; Laser ON
G1 X-13.6 Y-2.95 F200
M05; Laser OFF
G0 X9.4 Y-2.95 F3000
M03; Laser ON
G1 X15.1 Y-2.95 F200
M05; Laser OFF
G0 X15.1 Y-2.85 F3000
M03; Laser ON
G1 X9.4 Y-2.85 F200
M05; Laser OFF
G0 X-13.6 Y-2.85 F3000
M03; Laser ON
G1 X-19.6 Y-2.85 F200
M05; Laser OFF
G0 X-19.6 Y-2.75 F3000
M03; Laser ON
G1 X-13.6 Y-2.75 F200
M05; Laser OFF
G0 X9.4 Y-2.75 F3000
M03; Laser ON
G1 X15.2 Y-2.75 F200
M05; Laser OFF
G0 X15.2 Y-2.65 F3000
M03; Laser ON
G1 X9.4 Y-2.65 F200
M05; Laser OFF
G0 X-13.6 Y-2.65 F3000
M03; Laser ON
G1 X-19.7 Y-2.65 F200
M05; Laser OFF
G0 X-19.7 Y-2.55 F3000
M03; Laser ON
G1 X-13.6 Y-2.55 F200
M05; Laser OFF
G0 X9.4 Y-2.55 F3000
M03; Laser ON
G1 X15.2 Y-2.55 F200
M05; Laser OFF
G0 X15.2 Y-2.45 F3000
M03; Laser ON
G1 X9.4 Y-2.45 F200
M05; Laser OFF
G0 X-13.6 Y-2.45 F3000
M03; Laser ON
G1 X-19.7 Y-2.45 F200
M05; Laser OFF
G0 X-19.7 Y-2.35 F3000
M03; Laser ON
G1 X-13.7 Y-2.35 F200
M05; Laser OFF
G0 X9.5 Y-2.35 F3000
M03; Laser ON
G1 X15.2 Y-2.35 F200
M05; Laser OFF
G0 X15.2 Y-2.25 F3000
M03; Laser ON
G1 X9.5 Y-2.25 F200
M05; Laser OFF
G0 X-13.7 Y-2.25 F3000
M03; Laser ON
G1 X-19.7 Y-2.25 F200
M05; Laser OFF
G0 X-19.7 Y-2.15 F3000
M03; Laser ON
G1 X-13.7 Y-2.15 F200
M05; Laser OFF
G0 X9.5 Y-2.15 F3000
M03; Laser ON
G1 X15.3 Y-2.15 F200
M05; Laser OFF
G0 X15.3 Y-2.05 F3000
M03; Laser ON
G1 X9.5 Y-2.05 F200
M05; Laser OFF
G0 X-13.7 Y-2.05 F3000
M03; Laser ON
G1 X-19.7 Y-2.05 F200
M05; Laser OFF
G0 X-19.8 Y-1.95 F3000
M03; Laser ON
G1 X-13.7 Y-1.95 F200
M05; Laser OFF
G0 X9.5 Y-1.95 F3000
M03; Laser ON
G1 X15.3 Y-1.95 F200
M05; Laser OFF
G0 X15.3 Y-1.85 F3000
M03; Laser ON
G1 X9.5 Y-1.85 F200
M05; Laser OFF
G0 X-13.7 Y-1.85 F3000
M03; Laser ON
G1 X-19.8 Y-1.85 F200
M05; Laser OFF
G0 X-19.8 Y-1.75 F3000
M03; Laser ON
G1 X-13.8 Y-1.75 F200
M05; Laser OFF
G0 X9.5 Y-1.75 F3000
M03; Laser ON
G1 X15.3 Y-1.75 F200
M05; Laser OFF
G0 X15.3 Y-1.65 F3000
M03; Laser ON
G1 X9.5 Y-1.65 F200
M05; Laser OFF
G0 X-13.8 Y-1.65 F3000
M03; Laser ON
G1 X-19.8 Y-1.65 F200
M05; Laser OFF
G0 X-19.8 Y-1.55 F3000
M03; Laser ON
G1 X-13.8 Y-1.55 F200
M05; Laser OFF
G0 X9.5 Y-1.55 F3000
M03; Laser ON
G1 X15.3 Y-1.55 F200
M05; Laser OFF
G0 X15.3 Y-1.45 F3000
M03; Laser ON
G1 X9.5 Y-1.45 F200
M05; Laser OFF
G0 X-13.8 Y-1.45 F3000
M03; Laser ON
G1 X-19.8 Y-1.45 F200
M05; Laser OFF
G0 X-19.8 Y-1.35 F3000
M03; Laser ON
G1 X-13.8 Y-1.35 F200
M05; Laser OFF
G0 X9.5 Y-1.35 F3000
M03; Laser ON
G1 X15.4 Y-1.35 F200
M05; Laser OFF
G0 X15.4 Y-1.25 F3000
M03; Laser ON
G1 X9.5 Y-1.25 F200
M05; Laser OFF
G0 X-13.8 Y-1.25 F3000
M03; Laser ON
G1 X-19.8 Y-1.25 F200
M05; Laser OFF
G0 X-19.8 Y-1.15 F3000
M03; Laser ON
G1 X-13.8 Y-1.15 F200
M05; Laser OFF
G0 X9.5 Y-1.15 F3000
M03; Laser ON
G1 X15.4 Y-1.15 F200
M05; Laser OFF
G0 X15.4 Y-1.05 F3000
M03; Laser ON
G1 X9.5 Y-1.05 F200
M05; Laser OFF
G0 X-13.8 Y-1.05 F3000
M03; Laser ON
G1 X-19.8 Y-1.05 F200
M05; Laser OFF
G0 X-19.8 Y-0.95 F3000
M03; Laser ON
G1 X-13.9 Y-0.95 F200
M05; Laser OFF
G0 X9.5 Y-0.95 F3000
M03; Laser ON
G1 X15.4 Y-0.95 F200
M05; Laser OFF
G0 X15.4 Y-0.85 F3000
M03; Laser ON
G1 X9.5 Y-0.85 F200
M05; Laser OFF
G0 X-13.9 Y-0.85 F3000
M03; Laser ON
G1 X-19.8 Y-0.85 F200
M05; Laser OFF
G0 X-19.8 Y-0.75 F3000
M03; Laser ON
G1 X-13.9 Y-0.75 F200
M05; Laser OFF
G0 X9.5 Y-0.75 F3000
M03; Laser ON
G1 X15.4 Y-0.75 F200
M05; Laser OFF
G0 X15.4 Y-0.65 F3000
M03; Laser ON
G1 X9.5 Y-0.65 F200
M05; Laser OFF
G0 X-13.9 Y-0.65 F3000
M03; Laser ON
G1 X-19.8 Y-0.65 F200
M05; Laser OFF
G0 X-19.9 Y-0.55 F3000
M03; Laser ON
G1 X-13.9 Y-0.55 F200
M05; Laser OFF
G0 X9.5 Y-0.55 F3000
M03; Laser ON
G1 X15.4 Y-0.55 F200
M05; Laser OFF
G0 X15.4 Y-0.45 F3000
M03; Laser ON
G1 X9.5 Y-0.45 F200
M05; Laser OFF
G0 X-13.9 Y-0.45 F3000
M03; Laser ON
G1 X-19.9 Y-0.45 F200
M05; Laser OFF
G0 X-19.9 Y-0.35 F3000
M03; Laser ON
G1 X-13.9 Y-0.35 F200
M05; Laser OFF
G0 X9.5 Y-0.35 F3000
M03; Laser ON
G1 X15.4 Y-0.35 F200
M05; Laser OFF
G0 X15.4 Y-0.25 F3000
M03; Laser ON
G1 X9.5 Y-0.25 F200
M05; Laser OFF
G0 X-13.9 Y-0.25 F3000
M03; Laser ON
G1 X-19.9 Y-0.25 F200
M05; Laser OFF
G0 X-19.9 Y-0.15 F3000
M03; Laser ON
G1 X-13.9 Y-0.15 F200
M05; Laser OFF
G0 X9.5 Y-0.15 F3000
M03; Laser ON
G1 X15.4 Y-0.15 F200
M05; Laser OFF
G0 X15.4 Y-0.05 F3000
M03; Laser ON
G1 X9.5 Y-0.05 F200
M05; Laser OFF
G0 X-13.9 Y-0.05 F3000
M03; Laser ON
G1 X-19.9 Y-0.05 F200
M05; Laser OFF
G0 X-19.9 Y0.05 F3000
M03; Laser ON
G1 X-13.9 Y0.05 F200
M05; Laser OFF
G0 X9.5 Y0.05 F3000
M03; Laser ON
G1 X15.5 Y0.05 F200
M05; Laser OFF
G0 X15.5 Y0.15 F3000
M03; Laser ON
G1 X9.5 Y0.15 F200
M05; Laser OFF
G0 X-13.9 Y0.15 F3000
M03; Laser ON
G1 X-19.9 Y0.15 F200
M05; Laser OFF
G0 X-19.9 Y0.25 F3000
M03; Laser ON
G1 X-13.9 Y0.25 F200
M05; Laser OFF
G0 X9.5 Y0.25 F3000
M03; Laser ON
G1 X15.5 Y0.25 F200
M05; Laser OFF
G0 X15.5 Y0.35 F3000
M03; Laser ON
G1 X9.5 Y0.35 F200
M05; Laser OFF
G0 X-14.0 Y0.35 F3000
M03; Laser ON
G1 X-19.9 Y0.35 F200
M05; Laser OFF
G0 X-19.9 Y0.45 F3000
M03; Laser ON
G1 X-14.0 Y0.45 F200
M05; Laser OFF
G0 X9.5 Y0.45 F3000
M03; Laser ON
G1 X15.5 Y0.45 F200
M05; Laser OFF
G0 X15.5 Y0.55 F3000
M03; Laser ON
G1 X9.5 Y0.55 F200
M05; Laser OFF
G0 X-14.0 Y0.55 F3000
M03; Laser ON
G1 X-19.9 Y0.55 F200
M05; Laser OFF
G0 X-19.9 Y0.65 F3000
M03; Laser ON
G1 X-14.0 Y0.65 F200
M05; Laser OFF
G0 X9.5 Y0.65 F3000
M03; Laser ON
G1 X15.5 Y0.65 F200
M05; Laser OFF
G0 X15.5 Y0.75 F3000
M03; Laser ON
G1 X9.5 Y0.75 F200
M05; Laser OFF
G0 X-14.0 Y0.75 F3000
M03; Laser ON
G1 X-19.9 Y0.75 F200
M05; Laser OFF
G0 X-19.8 Y0.85 F3000
M03; Laser ON
G1 X-14.0 Y0.85 F200
M05; Laser OFF
G0 X9.4 Y0.85 F3000
M03; Laser ON
G1 X15.5 Y0.85 F200
M05; Laser OFF
G0 X15.5 Y0.95 F3000
M03; Laser ON
G1 X9.4 Y0.95 F200
M05; Laser OFF
G0 X-14.0 Y0.95 F3000
M03; Laser ON
G1 X-19.8 Y0.95 F200
M05; Laser OFF
G0 X-19.8 Y1.05 F3000
M03; Laser ON
G1 X-14.0 Y1.05 F200
M05; Laser OFF
G0 X9.4 Y1.05 F3000
M03; Laser ON
G1 X15.5 Y1.05 F200
M05; Laser OFF
G0 X15.5 Y1.15 F3000
M03; Laser ON
G1 X9.4 Y1.15 F200
M05; Laser OFF
G0 X-14.0 Y1.15 F3000
M03; Laser ON
G1 X-19.8 Y1.15 F200
M05; Laser OFF
G0 X-19.8 Y1.25 F3000
M03; Laser ON
G1 X-14.0 Y1.25 F200
M05; Laser OFF
G0 X9.4 Y1.25 F3000
M03; Laser ON
G1 X15.5 Y1.25 F200
M05; Laser OFF
G0 X15.5 Y1.35 F3000
M03; Laser ON
G1 X9.4 Y1.35 F200
M05; Laser OFF
G0 X-14.0 Y1.35 F3000
M03; Laser ON
G1 X-19.8 Y1.35 F200
M05; Laser OFF
G0 X-19.8 Y1.45 F3000
M03; Laser ON
G1 X-14.0 Y1.45 F200
M05; Laser OFF
G0 X9.4 Y1.45 F3000
M03; Laser ON
G1 X15.5 Y1.45 F200
M05; Laser OFF
G0 X15.5 Y1.55 F3000
M03; Laser ON
G1 X9.4 Y1.55 F200
M05; Laser OFF
G0 X-14.0 Y1.55 F3000
M03; Laser ON
G1 X-19.8 Y1.55 F200
M05; Laser OFF
G0 X-19.8 Y1.65 F3000
M03; Laser ON
G1 X-14.0 Y1.65 F200
M05; Laser OFF
G0 X9.4 Y1.65 F3000
M03; Laser ON
G1 X15.5 Y1.65 F200
M05; Laser OFF
G0 X15.5 Y1.75 F3000
M03; Laser ON
G1 X9.4 Y1.75 F200
M05; Laser OFF
G0 X-14.0 Y1.75 F3000
M03; Laser ON
G1 X-19.8 Y1.75 F200
M05; Laser OFF
G0 X-19.8 Y1.85 F3000
M03; Laser ON
G1 X-14.0 Y1.85 F200
M05; Laser OFF
G0 X9.4 Y1.85 F3000
M03; Laser ON
G1 X15.4 Y1.85 F200
M05; Laser OFF
G0 X15.4 Y1.95 F3000
M03; Laser ON
G1 X9.3 Y1.95 F200
M05; Laser OFF
G0 X-14.0 Y1.95 F3000
M03; Laser ON
G1 X-19.8 Y1.95 F200
M05; Laser OFF
G0 X-19.8 Y2.05 F3000
M03; Laser ON
G1 X-14.0 Y2.05 F200
M05; Laser OFF
G0 X9.3 Y2.05 F3000
M03; Laser ON
G1 X15.4 Y2.05 F200
M05; Laser OFF
G0 X15.4 Y2.15 F3000
M03; Laser ON
G1 X9.3 Y2.15 F200
M05; Laser OFF
G0 X-14.0 Y2.15 F3000
M03; Laser ON
G1 X-19.7 Y2.15 F200
M05; Laser OFF
G0 X-19.7 Y2.25 F3000
M03; Laser ON
G1 X-14.0 Y2.25 F200
M05; Laser OFF
G0 X9.3 Y2.25 F3000
M03; Laser ON
G1 X15.4 Y2.25 F200
M05; Laser OFF
G0 X15.4 Y2.35 F3000
M03; Laser ON
G1 X9.3 Y2.35 F200
M05; Laser OFF
G0 X-14.0 Y2.35 F3000
M03; Laser ON
G1 X-19.7 Y2.35 F200
M05; Laser OFF
G0 X-19.7 Y2.45 F3000
M03; Laser ON
G1 X-14.0 Y2.45 F200
M05; Laser OFF
G0 X9.3 Y2.45 F3000
M03; Laser ON
G1 X15.4 Y2.45 F200
M05; Laser OFF
G0 X15.4 Y2.55 F3000
M03; Laser ON
G1 X9.3 Y2.55 F200
M05; Laser OFF
G0 X-14.0 Y2.55 F3000
M03; Laser ON
G1 X-19.7 Y2.55 F200
M05; Laser OFF
G0 X-19.7 Y2.65 F3000
M03; Laser ON
G1 X-14.0 Y2.65 F200
M05; Laser OFF
G0 X9.3 Y2.65 F3000
M03; Laser ON
G1 X15.4 Y2.65 F200
M05; Laser OFF
G0 X15.4 Y2.75 F3000
M03; Laser ON
G1 X9.2 Y2.75 F200
M05; Laser OFF
G0 X-13.9 Y2.75 F3000
M03; Laser ON
G1 X-19.7 Y2.75 F200
M05; Laser OFF
G0 X-19.6 Y2.85 F3000
M03; Laser ON
G1 X-13.9 Y2.85 F200
M05; Laser OFF
G0 X9.2 Y2.85 F3000
M03; Laser ON
G1 X15.4 Y2.85 F200
M05; Laser OFF
G0 X15.4 Y2.95 F3000
M03; Laser ON
G1 X9.2 Y2.95 F200
M05; Laser OFF
G0 X-13.9 Y2.95 F3000
M03; Laser ON
G1 X-19.6 Y2.95 F200
M05; Laser OFF
G0 X-19.6 Y3.05 F3000
M03; Laser ON
G1 X-13.9 Y3.05 F200
M05; Laser OFF
G0 X9.2 Y3.05 F3000
M03; Laser ON
G1 X15.4 Y3.05 F200
M05; Laser OFF
G0 X15.3 Y3.15 F3000
M03; Laser ON
G1 X9.2 Y3.15 F200
M05; Laser OFF
G0 X-13.9 Y3.15 F3000
M03; Laser ON
G1 X-19.6 Y3.15 F200
M05; Laser OFF
G0 X-19.6 Y3.25 F3000
M03; Laser ON
G1 X-13.9 Y3.25 F200
M05; Laser OFF
G0 X9.2 Y3.25 F3000
M03; Laser ON
G1 X15.3 Y3.25 F200
M05; Laser OFF
G0 X15.3 Y3.35 F3000
M03; Laser ON
G1 X9.1 Y3.35 F200
M05; Laser OFF
G0 X-13.9 Y3.35 F3000
M03; Laser ON
G1 X-19.6 Y3.35 F200
M05; Laser OFF
G0 X-19.5 Y3.45 F3000
M03; Laser ON
G1 X-13.9 Y3.45 F200
M05; Laser OFF
G0 X9.1 Y3.45 F3000
M03; Laser ON
G1 X15.3 Y3.45 F200
M05; Laser OFF
G0 X15.3 Y3.55 F3000
M03; Laser ON
G1 X9.1 Y3.55 F200
M05; Laser OFF
G0 X-13.9 Y3.55 F3000
M03; Laser ON
G1 X-19.5 Y3.55 F200
M05; Laser OFF
G0 X-19.5 Y3.65 F3000
M03; Laser ON
G1 X-13.9 Y3.65 F200
M05; Laser OFF
G0 X9.1 Y3.65 F3000
M03; Laser ON
G1 X15.3 Y3.65 F200
M05; Laser OFF
G0 X15.3 Y3.75 F3000
M03; Laser ON
G1 X9.1 Y3.75 F200
M05; Laser OFF
G0 X-13.9 Y3.75 F3000
M03; Laser ON
G1 X-19.5 Y3.75 F200
M05; Laser OFF
G0 X-19.5 Y3.85 F3000
M03; Laser ON
G1 X-13.9 Y3.85 F200
M05; Laser OFF
G0 X9.0 Y3.85 F3000
M03; Laser ON
G1 X15.3 Y3.85 F200
M05; Laser OFF
G0 X15.2 Y3.95 F3000
M03; Laser ON
G1 X9.0 Y3.95 F200
M05; Laser OFF
G0 X-13.9 Y3.95 F3000
M03; Laser ON
G1 X-19.4 Y3.95 F200
M05; Laser OFF
G0 X-19.4 Y4.05 F3000
M03; Laser ON
G1 X-13.9 Y4.05 F200
M05; Laser OFF
G0 X9.0 Y4.05 F3000
M03; Laser ON
G1 X15.2 Y4.05 F200
M05; Laser OFF
G0 X15.2 Y4.15 F3000
M03; Laser ON
G1 X9.0 Y4.15 F200
M05; Laser OFF
G0 X-13.8 Y4.15 F3000
M03; Laser ON
G1 X-19.4 Y4.15 F200
M05; Laser OFF
G0 X-19.4 Y4.25 F3000
M03; Laser ON
G1 X-13.8 Y4.25 F200
M05; Laser OFF
G0 X8.9 Y4.25 F3000
M03; Laser ON
G1 X15.2 Y4.25 F200
M05; Laser OFF
G0 X15.2 Y4.35 F3000
M03; Laser ON
G1 X8.9 Y4.35 F200
M05; Laser OFF
G0 X-13.8 Y4.35 F3000
M03; Laser ON
G1 X-19.3 Y4.35 F200
M05; Laser OFF
G0 X-19.3 Y4.45 F3000
M03; Laser ON
G1 X-13.8 Y4.45 F200
M05; Laser OFF
G0 X8.9 Y4.45 F3000
M03; Laser ON
G1 X15.2 Y4.45 F200
M05; Laser OFF
G0 X15.1 Y4.55 F3000
M03; Laser ON
G1 X8.9 Y4.55 F200
M05; Laser OFF
G0 X-13.8 Y4.55 F3000
M03; Laser ON
G1 X-19.3 Y4.55 F200
M05; Laser OFF
G0 X-19.3 Y4.65 F3000
M03; Laser ON
G1 X-13.8 Y4.65 F200
M05; Laser OFF
G0 X8.8 Y4.65 F3000
M03; Laser ON
G1 X15.1 Y4.65 F200
M05; Laser OFF
G0 X15.1 Y4.75 F3000
M03; Laser ON
G1 X8.8 Y4.75 F200
M05; Laser OFF
G0 X-13.8 Y4.75 F3000
M03; Laser ON
G1 X-19.2 Y4.75 F200
M05; Laser OFF
G0 X-19.2 Y4.85 F3000
M03; Laser ON
G1 X-13.8 Y4.85 F200
M05; Laser OFF
G0 X8.8 Y4.85 F3000
M03; Laser ON
G1 X15.1 Y4.85 F200
M05; Laser OFF
G0 X15.1 Y4.95 F3000
M03; Laser ON
G1 X8.8 Y4.95 F200
M05; Laser OFF
G0 X-13.7 Y4.95 F3000
M03; Laser ON
G1 X-19.2 Y4.95 F200
M05; Laser OFF
G0 X-19.2 Y5.05 F3000
M03; Laser ON
G1 X-13.7 Y5.05 F200
M05; Laser OFF
G0 X8.7 Y5.05 F3000
M03; Laser ON
G1 X15.0 Y5.05 F200
M05; Laser OFF
G0 X15.0 Y5.15 F3000
M03; Laser ON
G1 X8.7 Y5.15 F200
M05; Laser OFF
G0 X-13.7 Y5.15 F3000
M03; Laser ON
G1 X-19.1 Y5.15 F200
M05; Laser OFF
G0 X-19.1 Y5.25 F3000
M03; Laser ON
G1 X-13.7 Y5.25 F200
M05; Laser OFF
G0 X8.7 Y5.25 F3000
M03; Laser ON
G1 X15.0 Y5.25 F200
M05; Laser OFF
G0 X15.0 Y5.35 F3000
M03; Laser ON
G1 X8.7 Y5.35 F200
M05; Laser OFF
G0 X-13.7 Y5.35 F3000
M03; Laser ON
G1 X-19.1 Y5.35 F200
M05; Laser OFF
G0 X-19.0 Y5.45 F3000
M03; Laser ON
G1 X-13.7 Y5.45 F200
M05; Laser OFF
G0 X8.6 Y5.45 F3000
M03; Laser ON
G1 X14.9 Y5.45 F200
M05; Laser OFF
G0 X14.9 Y5.55 F3000
M03; Laser ON
G1 X8.6 Y5.55 F200
M05; Laser OFF
G0 X-13.7 Y5.55 F3000
M03; Laser ON
G1 X-19.0 Y5.55 F200
M05; Laser OFF
G0 X-19.0 Y5.65 F3000
M03; Laser ON
G1 X-13.6 Y5.65 F200
M05; Laser OFF
G0 X8.6 Y5.65 F3000
M03; Laser ON
G1 X14.9 Y5.65 F200
M05; Laser OFF
G0 X14.9 Y5.75 F3000
M03; Laser ON
G1 X8.5 Y5.75 F200
M05; Laser OFF
G0 X-13.6 Y5.75 F3000
M03; Laser ON
G1 X-18.9 Y5.75 F200
M05; Laser OFF
G0 X-18.9 Y5.85 F3000
M03; Laser ON
G1 X-13.6 Y5.85 F200
M05; Laser OFF
G0 X8.5 Y5.85 F3000
M03; Laser ON
G1 X14.8 Y5.85 F200
M05; Laser OFF
G0 X14.8 Y5.95 F3000
M03; Laser ON
G1 X8.5 Y5.95 F200
M05; Laser OFF
G0 X-13.6 Y5.95 F3000
M03; Laser ON
G1 X-18.9 Y5.95 F200
M05; Laser OFF
G0 X-18.8 Y6.05 F3000
M03; Laser ON
G1 X-13.6 Y6.05 F200
M05; Laser OFF
G0 X8.4 Y6.05 F3000
M03; Laser ON
G1 X14.8 Y6.05 F200
M05; Laser OFF
G0 X14.8 Y6.15 F3000
M03; Laser ON
G1 X8.4 Y6.15 F200
M05; Laser OFF
G0 X-13.5 Y6.15 F3000
M03; Laser ON
G1 X-18.8 Y6.15 F200
M05; Laser OFF
G0 X-18.8 Y6.25 F3000
M03; Laser ON
G1 X-13.5 Y6.25 F200
M05; Laser OFF
G0 X8.4 Y6.25 F3000
M03; Laser ON
G1 X14.7 Y6.25 F200
M05; Laser OFF
G0 X14.7 Y6.35 F3000
M03; Laser ON
G1 X8.3 Y6.35 F200
M05; Laser OFF
G0 X-13.5 Y6.35 F3000
M03; Laser ON
G1 X-18.7 Y6.35 F200
M05; Laser OFF
G0 X-18.7 Y6.45 F3000
M03; Laser ON
G1 X-13.5 Y6.45 F200
M05; Laser OFF
G0 X8.3 Y6.45 F3000
M03; Laser ON
G1 X14.7 Y6.45 F200
M05; Laser OFF
G0 X14.6 Y6.55 F3000
M03; Laser ON
G1 X8.2 Y6.55 F200
M05; Laser OFF
G0 X-13.5 Y6.55 F3000
M03; Laser ON
G1 X-18.7 Y6.55 F200
M05; Laser OFF
G0 X-18.6 Y6.65 F3000
M03; Laser ON
G1 X-13.4 Y6.65 F200
M05; Laser OFF
G0 X8.2 Y6.65 F3000
M03; Laser ON
G1 X14.6 Y6.65 F200
M05; Laser OFF
G0 X14.6 Y6.75 F3000
M03; Laser ON
G1 X8.2 Y6.75 F200
M05; Laser OFF
G0 X-13.4 Y6.75 F3000
M03; Laser ON
G1 X-18.6 Y6.75 F200
M05; Laser OFF
G0 X-18.5 Y6.85 F3000
M03; Laser ON
G1 X-13.4 Y6.85 F200
M05; Laser OFF
G0 X8.1 Y6.85 F3000
M03; Laser ON
G1 X14.5 Y6.85 F200
M05; Laser OFF
G0 X14.5 Y6.95 F3000
M03; Laser ON
G1 X8.1 Y6.95 F200
M05; Laser OFF
G0 X-13.4 Y6.95 F3000
M03; Laser ON
G1 X-18.5 Y6.95 F200
M05; Laser OFF
G0 X-18.5 Y7.05 F3000
M03; Laser ON
G1 X-13.3 Y7.05 F200
M05; Laser OFF
G0 X8.0 Y7.05 F3000
M03; Laser ON
G1 X14.5 Y7.05 F200
M05; Laser OFF
G0 X14.4 Y7.15 F3000
M03; Laser ON
G1 X8.0 Y7.15 F200
M05; Laser OFF
G0 X-13.3 Y7.15 F3000
M03; Laser ON
G1 X-18.4 Y7.15 F200
M05; Laser OFF
G0 X-18.4 Y7.25 F3000
M03; Laser ON
G1 X-13.3 Y7.25 F200
M05; Laser OFF
G0 X8.0 Y7.25 F3000
M03; Laser ON
G1 X14.4 Y7.25 F200
M05; Laser OFF
G0 X14.4 Y7.35 F3000
M03; Laser ON
G1 X7.9 Y7.35 F200
M05; Laser OFF
G0 X-13.2 Y7.35 F3000
M03; Laser ON
G1 X-18.3 Y7.35 F200
M05; Laser OFF
G0 X-18.3 Y7.45 F3000
M03; Laser ON
G1 X-13.2 Y7.45 F200
M05; Laser OFF
G0 X7.9 Y7.45 F3000
M03; Laser ON
G1 X14.3 Y7.45 F200
M05; Laser OFF
G0 X14.3 Y7.55 F3000
M03; Laser ON
G1 X7.8 Y7.55 F200
M05; Laser OFF
G0 X-13.2 Y7.55 F3000
M03; Laser ON
G1 X-18.2 Y7.55 F200
M05; Laser OFF
G0 X-18.2 Y7.65 F3000
M03; Laser ON
G1 X-13.2 Y7.65 F200
M05; Laser OFF
G0 X7.8 Y7.65 F3000
M03; Laser ON
G1 X14.2 Y7.65 F200
M05; Laser OFF
G0 X14.2 Y7.75 F3000
M03; Laser ON
G1 X7.7 Y7.75 F200
M05; Laser OFF
G0 X-13.1 Y7.75 F3000
M03; Laser ON
G1 X-18.1 Y7.75 F200
M05; Laser OFF
G0 X-18.1 Y7.85 F3000
M03; Laser ON
G1 X-13.1 Y7.85 F200
M05; Laser OFF
G0 X7.7 Y7.85 F3000
M03; Laser ON
G1 X14.2 Y7.85 F200
M05; Laser OFF
G0 X14.1 Y7.95 F3000
M03; Laser ON
G1 X7.6 Y7.95 F200
M05; Laser OFF
G0 X-13.1 Y7.95 F3000
M03; Laser ON
G1 X-18.1 Y7.95 F200
M05; Laser OFF
G0 X-18.0 Y8.05 F3000
M03; Laser ON
G1 X-13.0 Y8.05 F200
M05; Laser OFF
G0 X7.6 Y8.05 F3000
M03; Laser ON
G1 X14.1 Y8.05 F200
M05; Laser OFF
G0 X14.0 Y8.15 F3000
M03; Laser ON
G1 X7.5 Y8.15 F200
M05; Laser OFF
G0 X-13.0 Y8.15 F3000
M03; Laser ON
G1 X-18.0 Y8.15 F200
M05; Laser OFF
G0 X-17.9 Y8.25 F3000
M03; Laser ON
G1 X-13.0 Y8.25 F200
M05; Laser OFF
G0 X7.5 Y8.25 F3000
M03; Laser ON
G1 X14.0 Y8.25 F200
M05; Laser OFF
G0 X13.9 Y8.35 F3000
M03; Laser ON
G1 X7.4 Y8.35 F200
M05; Laser OFF
G0 X-12.9 Y8.35 F3000
M03; Laser ON
G1 X-17.8 Y8.35 F200
M05; Laser OFF
G0 X-17.8 Y8.45 F3000
M03; Laser ON
G1 X-12.9 Y8.45 F200
M05; Laser OFF
G0 X7.4 Y8.45 F3000
M03; Laser ON
G1 X13.9 Y8.45 F200
M05; Laser OFF
G0 X13.8 Y8.55 F3000
M03; Laser ON
G1 X7.3 Y8.55 F200
M05; Laser OFF
G0 X-12.8 Y8.55 F3000
M03; Laser ON
G1 X-17.7 Y8.55 F200
M05; Laser OFF
G0 X-17.7 Y8.65 F3000
M03; Laser ON
G1 X-12.8 Y8.65 F200
M05; Laser OFF
G0 X7.3 Y8.65 F3000
M03; Laser ON
G1 X13.8 Y8.65 F200
M05; Laser OFF
G0 X13.7 Y8.75 F3000
M03; Laser ON
G1 X7.2 Y8.75 F200
M05; Laser OFF
G0 X-12.8 Y8.75 F3000
M03; Laser ON
G1 X-17.6 Y8.75 F200
M05; Laser OFF
G0 X-17.6 Y8.85 F3000
M03; Laser ON
G1 X-12.7 Y8.85 F200
M05; Laser OFF
G0 X7.2 Y8.85 F3000
M03; Laser ON
G1 X13.7 Y8.85 F200
M05; Laser OFF
G0 X13.6 Y8.95 F3000
M03; Laser ON
G1 X7.1 Y8.95 F200
M05; Laser OFF
G0 X-12.7 Y8.95 F3000
M03; Laser ON
G1 X-17.5 Y8.95 F200
M05; Laser OFF
G0 X-17.5 Y9.05 F3000
M03; Laser ON
G1 X-12.6 Y9.05 F200
M05; Laser OFF
G0 X7.0 Y9.05 F3000
M03; Laser ON
G1 X13.6 Y9.05 F200
M05; Laser OFF
G0 X13.5 Y9.15 F3000
M03; Laser ON
G1 X7.0 Y9.15 F200
M05; Laser OFF
G0 X-12.6 Y9.15 F3000
M03; Laser ON
G1 X-17.4 Y9.15 F200
M05; Laser OFF
G0 X-17.3 Y9.25 F3000
M03; Laser ON
G1 X-12.6 Y9.25 F200
M05; Laser OFF
G0 X6.9 Y9.25 F3000
M03; Laser ON
G1 X13.5 Y9.25 F200
M05; Laser OFF
G0 X13.4 Y9.35 F3000
M03; Laser ON
G1 X6.9 Y9.35 F200
M05; Laser OFF
G0 X-12.5 Y9.35 F3000
M03; Laser ON
G1 X-17.3 Y9.35 F200
M05; Laser OFF
G0 X-17.2 Y9.45 F3000
M03; Laser ON
G1 X-12.5 Y9.45 F200
M05; Laser OFF
G0 X6.8 Y9.45 F3000
M03; Laser ON
G1 X13.4 Y9.45 F200
M05; Laser OFF
G0 X13.3 Y9.55 F3000
M03; Laser ON
G1 X6.7 Y9.55 F200
M05; Laser OFF
G0 X-12.4 Y9.55 F3000
M03; Laser ON
G1 X-17.1 Y9.55 F200
M05; Laser OFF
G0 X-17.1 Y9.65 F3000
M03; Laser ON
G1 X-12.4 Y9.65 F200
M05; Laser OFF
G0 X6.7 Y9.65 F3000
M03; Laser ON
G1 X13.2 Y9.65 F200
M05; Laser OFF
G0 X13.2 Y9.75 F3000
M03; Laser ON
G1 X6.6 Y9.75 F200
M05; Laser OFF
G0 X-12.3 Y9.75 F3000
M03; Laser ON
G1 X-17.0 Y9.75 F200
M05; Laser OFF
G0 X-17.0 Y9.85 F3000
M03; Laser ON
G1 X-12.3 Y9.85 F200
M05; Laser OFF
G0 X6.5 Y9.85 F3000
M03; Laser ON
G1 X13.1 Y9.85 F200
M05; Laser OFF
G0 X13.1 Y9.95 F3000
M03; Laser ON
G1 X6.4 Y9.95 F200
M05; Laser OFF
G0 X-12.2 Y9.95 F3000
M03; Laser ON
G1 X-16.9 Y9.95 F200
M05; Laser OFF
G0 X-16.8 Y10.05 F3000
M03; Laser ON
G1 X-12.2 Y10.05 F200
M05; Laser OFF
G0 X6.4 Y10.05 F3000
M03; Laser ON
G1 X13.0 Y10.05 F200
M05; Laser OFF
G0 X12.9 Y10.15 F3000
M03; Laser ON
G1 X6.3 Y10.15 F200
M05; Laser OFF
G0 X-12.1 Y10.15 F3000
M03; Laser ON
G1 X-16.7 Y10.15 F200
M05; Laser OFF
G0 X-16.7 Y10.25 F3000
M03; Laser ON
G1 X-12.0 Y10.25 F200
M05; Laser OFF
G0 X6.2 Y10.25 F3000
M03; Laser ON
G1 X12.9 Y10.25 F200
M05; Laser OFF
G0 X12.8 Y10.35 F3000
M03; Laser ON
G1 X6.1 Y10.35 F200
M05; Laser OFF
G0 X-12.0 Y10.35 F3000
M03; Laser ON
G1 X-16.6 Y10.35 F200
M05; Laser OFF
G0 X-16.5 Y10.45 F3000
M03; Laser ON
G1 X-11.9 Y10.45 F200
M05; Laser OFF
G0 X6.1 Y10.45 F3000
M03; Laser ON
G1 X12.7 Y10.45 F200
M05; Laser OFF
G0 X12.7 Y10.55 F3000
M03; Laser ON
G1 X6.0 Y10.55 F200
M05; Laser OFF
G0 X-11.9 Y10.55 F3000
M03; Laser ON
G1 X-16.5 Y10.55 F200
M05; Laser OFF
G0 X-16.4 Y10.65 F3000
M03; Laser ON
G1 X-11.8 Y10.65 F200
M05; Laser OFF
G0 X5.9 Y10.65 F3000
M03; Laser ON
G1 X12.6 Y10.65 F200
M05; Laser OFF
G0 X12.5 Y10.75 F3000
M03; Laser ON
G1 X5.8 Y10.75 F200
M05; Laser OFF
G0 X-11.7 Y10.75 F3000
M03; Laser ON
G1 X-16.3 Y10.75 F200
M05; Laser OFF
G0 X-16.2 Y10.85 F3000
M03; Laser ON
G1 X-11.7 Y10.85 F200
M05; Laser OFF
G0 X5.7 Y10.85 F3000
M03; Laser ON
G1 X12.4 Y10.85 F200
M05; Laser OFF
G0 X12.4 Y10.95 F3000
M03; Laser ON
G1 X5.7 Y10.95 F200
M05; Laser OFF
G0 X-11.6 Y10.95 F3000
M03; Laser ON
G1 X-16.2 Y10.95 F200
M05; Laser OFF
G0 X-16.1 Y11.05 F3000
M03; Laser ON
G1 X-11.5 Y11.05 F200
M05; Laser OFF
G0 X5.6 Y11.05 F3000
M03; Laser ON
G1 X12.3 Y11.05 F200
M05; Laser OFF
G0 X12.2 Y11.15 F3000
M03; Laser ON
G1 X5.5 Y11.15 F200
M05; Laser OFF
G0 X-11.5 Y11.15 F3000
M03; Laser ON
G1 X-16.0 Y11.15 F200
M05; Laser OFF
G0 X-15.9 Y11.25 F3000
M03; Laser ON
G1 X-11.4 Y11.25 F200
M05; Laser OFF
G0 X5.4 Y11.25 F3000
M03; Laser ON
G1 X12.1 Y11.25 F200
M05; Laser OFF
G0 X12.1 Y11.35 F3000
M03; Laser ON
G1 X5.3 Y11.35 F200
M05; Laser OFF
G0 X-11.3 Y11.35 F3000
M03; Laser ON
G1 X-15.8 Y11.35 F200
M05; Laser OFF
G0 X-15.7 Y11.45 F3000
M03; Laser ON
G1 X-11.2 Y11.45 F200
M05; Laser OFF
G0 X5.2 Y11.45 F3000
M03; Laser ON
G1 X12.0 Y11.45 F200
M05; Laser OFF
G0 X11.9 Y11.55 F3000
M03; Laser ON
G1 X5.1 Y11.55 F200
M05; Laser OFF
G0 X-11.2 Y11.55 F3000
M03; Laser ON
G1 X-15.7 Y11.55 F200
M05; Laser OFF
G0 X-15.6 Y11.65 F3000
M03; Laser ON
G1 X-11.1 Y11.65 F200
M05; Laser OFF
G0 X5.0 Y11.65 F3000
M03; Laser ON
G1 X11.8 Y11.65 F200
M05; Laser OFF
G0 X11.7 Y11.75 F3000
M03; Laser ON
G1 X4.9 Y11.75 F200
M05; Laser OFF
G0 X-11.0 Y11.75 F3000
M03; Laser ON
G1 X-15.5 Y11.75 F200
M05; Laser OFF
G0 X-15.4 Y11.85 F3000
M03; Laser ON
G1 X-10.9 Y11.85 F200
M05; Laser OFF
G0 X4.8 Y11.85 F3000
M03; Laser ON
G1 X11.6 Y11.85 F200
M05; Laser OFF
G0 X11.5 Y11.95 F3000
M03; Laser ON
G1 X4.7 Y11.95 F200
M05; Laser OFF
G0 X-10.8 Y11.95 F3000
M03; Laser ON
G1 X-15.3 Y11.95 F200
M05; Laser OFF
G0 X-15.2 Y12.05 F3000
M03; Laser ON
G1 X-10.7 Y12.05 F200
M05; Laser OFF
G0 X4.6 Y12.05 F3000
M03; Laser ON
G1 X11.4 Y12.05 F200
M05; Laser OFF
G0 X11.4 Y12.15 F3000
M03; Laser ON
G1 X4.5 Y12.15 F200
M05; Laser OFF
G0 X-10.6 Y12.15 F3000
M03; Laser ON
G1 X-15.1 Y12.15 F200
M05; Laser OFF
G0 X-15.0 Y12.25 F3000
M03; Laser ON
G1 X-10.5 Y12.25 F200
M05; Laser OFF
G0 X4.3 Y12.25 F3000
M03; Laser ON
G1 X11.3 Y12.25 F200
M05; Laser OFF
G0 X11.2 Y12.35 F3000
M03; Laser ON
G1 X4.2 Y12.35 F200
M05; Laser OFF
G0 X-10.4 Y12.35 F3000
M03; Laser ON
G1 X-14.9 Y12.35 F200
M05; Laser OFF
G0 X-14.8 Y12.45 F3000
M03; Laser ON
G1 X-10.3 Y12.45 F200
M05; Laser OFF
G0 X4.1 Y12.45 F3000
M03; Laser ON
G1 X11.1 Y12.45 F200
M05; Laser OFF
G0 X11.0 Y12.55 F3000
M03; Laser ON
G1 X4.0 Y12.55 F200
M05; Laser OFF
G0 X-10.2 Y12.55 F3000
M03; Laser ON
G1 X-14.7 Y12.55 F200
M05; Laser OFF
G0 X-14.6 Y12.65 F3000
M03; Laser ON
G1 X-10.1 Y12.65 F200
M05; Laser OFF
G0 X3.8 Y12.65 F3000
M03; Laser ON
G1 X10.8 Y12.65 F200
M05; Laser OFF
G0 X10.7 Y12.75 F3000
M03; Laser ON
G1 X3.7 Y12.75 F200
M05; Laser OFF
G0 X-10.0 Y12.75 F3000
M03; Laser ON
G1 X-14.5 Y12.75 F200
M05; Laser OFF
G0 X-14.4 Y12.85 F3000
M03; Laser ON
G1 X-9.9 Y12.85 F200
M05; Laser OFF
G0 X3.6 Y12.85 F3000
M03; Laser ON
G1 X10.6 Y12.85 F200
M05; Laser OFF
G0 X10.5 Y12.95 F3000
M03; Laser ON
G1 X3.4 Y12.95 F200
M05; Laser OFF
G0 X-9.7 Y12.95 F3000
M03; Laser ON
G1 X-14.3 Y12.95 F200
M05; Laser OFF
G0 X-14.1 Y13.05 F3000
M03; Laser ON
G1 X-9.6 Y13.05 F200
M05; Laser OFF
G0 X3.3 Y13.05 F3000
M03; Laser ON
G1 X10.4 Y13.05 F200
M05; Laser OFF
G0 X10.3 Y13.15 F3000
M03; Laser ON
G1 X3.1 Y13.15 F200
M05; Laser OFF
G0 X-9.5 Y13.15 F3000
M03; Laser ON
G1 X-14.0 Y13.15 F200
M05; Laser OFF
G0 X-13.9 Y13.25 F3000
M03; Laser ON
G1 X-9.3 Y13.25 F200
M05; Laser OFF
G0 X3.0 Y13.25 F3000
M03; Laser ON
G1 X10.2 Y13.25 F200
M05; Laser OFF
G0 X10.0 Y13.35 F3000
M03; Laser ON
G1 X2.8 Y13.35 F200
M05; Laser OFF
G0 X-9.2 Y13.35 F3000
M03; Laser ON
G1 X-13.8 Y13.35 F200
M05; Laser OFF
G0 X-13.6 Y13.45 F3000
M03; Laser ON
G1 X-9.0 Y13.45 F200
M05; Laser OFF
G0 X2.7 Y13.45 F3000
M03; Laser ON
G1 X9.9 Y13.45 F200
M05; Laser OFF
G0 X9.8 Y13.55 F3000
M03; Laser ON
G1 X2.5 Y13.55 F200
M05; Laser OFF
G0 X-8.9 Y13.55 F3000
M03; Laser ON
G1 X-13.5 Y13.55 F200
M05; Laser OFF
G0 X-13.4 Y13.65 F3000
M03; Laser ON
G1 X-8.7 Y13.65 F200
M05; Laser OFF
G0 X2.3 Y13.65 F3000
M03; Laser ON
G1 X9.7 Y13.65 F200
M05; Laser OFF
G0 X9.5 Y13.75 F3000
M03; Laser ON
G1 X2.1 Y13.75 F200
M05; Laser OFF
G0 X-8.5 Y13.75 F3000
M03; Laser ON
G1 X-13.2 Y13.75 F200
M05; Laser OFF
G0 X-13.1 Y13.85 F3000
M03; Laser ON
G1 X-8.4 Y13.85 F200
M05; Laser OFF
G0 X1.9 Y13.85 F3000
M03; Laser ON
G1 X9.4 Y13.85 F200
M05; Laser OFF
G0 X9.2 Y13.95 F3000
M03; Laser ON
G1 X1.7 Y13.95 F200
M05; Laser OFF
G0 X-8.2 Y13.95 F3000
M03; Laser ON
G1 X-13.0 Y13.95 F200
M05; Laser OFF
G0 X-12.8 Y14.05 F3000
M03; Laser ON
G1 X-8.0 Y14.05 F200
M05; Laser OFF
G0 X1.5 Y14.05 F3000
M03; Laser ON
G1 X9.1 Y14.05 F200
M05; Laser OFF
G0 X8.9 Y14.15 F3000
M03; Laser ON
G1 X1.2 Y14.15 F200
M05; Laser OFF
G0 X-7.7 Y14.15 F3000
M03; Laser ON
G1 X-12.7 Y14.15 F200
M05; Laser OFF
G0 X-12.5 Y14.25 F3000
M03; Laser ON
G1 X-7.5 Y14.25 F200
M05; Laser OFF
G0 X1.0 Y14.25 F3000
M03; Laser ON
G1 X8.8 Y14.25 F200
M05; Laser OFF
G0 X8.6 Y14.35 F3000
M03; Laser ON
G1 X0.7 Y14.35 F200
M05; Laser OFF
G0 X-7.2 Y14.35 F3000
M03; Laser ON
G1 X-12.4 Y14.35 F200
M05; Laser OFF
G0 X-12.2 Y14.45 F3000
M03; Laser ON
G1 X-6.9 Y14.45 F200
M05; Laser OFF
G0 X0.4 Y14.45 F3000
M03; Laser ON
G1 X8.5 Y14.45 F200
M05; Laser OFF
G0 X8.3 Y14.55 F3000
M03; Laser ON
G1 X0.1 Y14.55 F200
M05; Laser OFF
G0 X-6.6 Y14.55 F3000
M03; Laser ON
G1 X-12.1 Y14.55 F200
M05; Laser OFF
G0 X-11.9 Y14.65 F3000
M03; Laser ON
G1 X-6.3 Y14.65 F200
M05; Laser OFF
G0 X-0.3 Y14.65 F3000
M03; Laser ON
G1 X8.1 Y14.65 F200
M05; Laser OFF
G0 X8.0 Y14.75 F3000
M03; Laser ON
G1 X-0.7 Y14.75 F200
M05; Laser OFF
G0 X-5.8 Y14.75 F3000
M03; Laser ON
G1 X-11.7 Y14.75 F200
M05; Laser OFF
G0 X-11.5 Y14.85 F3000
M03; Laser ON
G1 X-5.3 Y14.85 F200
M05; Laser OFF
G0 X-1.2 Y14.85 F3000
M03; Laser ON
G1 X7.8 Y14.85 F200
M05; Laser OFF
G0 X7.6 Y14.95 F3000
M03; Laser ON
G1 X-2.0 Y14.95 F200
M05; Laser OFF
G0 X-4.6 Y14.95 F3000
M03; Laser ON
G1 X-11.4 Y14.95 F200
M05; Laser OFF
G0 X-11.2 Y15.05 F3000
M03; Laser ON
G1 X7.4 Y15.05 F200
M05; Laser OFF
G0 X7.2 Y15.15 F3000
M03; Laser ON
G1 X-11.0 Y15.15 F200
M05; Laser OFF
G0 X-10.8 Y15.25 F3000
M03; Laser ON
G1 X7.0 Y15.25 F200
M05; Laser OFF
G0 X6.8 Y15.35 F3000
M03; Laser ON
G1 X-10.6 Y15.35 F200
M05; Laser OFF
G0 X-10.3 Y15.45 F3000
M03; Laser ON
G1 X6.6 Y15.45 F200
M05; Laser OFF
G0 X6.3 Y15.55 F3000
M03; Laser ON
G1 X-10.1 Y15.55 F200
M05; Laser OFF
G0 X-9.9 Y15.65 F3000
M03; Laser ON
G1 X6.1 Y15.65 F200
M05; Laser OFF
G0 X5.8 Y15.75 F3000
M03; Laser ON
G1 X-9.6 Y15.75 F200
M05; Laser OFF
G0 X-9.4 Y15.85 F3000
M03; Laser ON
G1 X5.6 Y15.85 F200
M05; Laser OFF
G0 X5.3 Y15.95 F3000
M03; Laser ON
G1 X-9.1 Y15.95 F200
M05; Laser OFF
G0 X-8.8 Y16.05 F3000
M03; Laser ON
G1 X5.0 Y16.05 F200
M05; Laser OFF
G0 X4.7 Y16.15 F3000
M03; Laser ON
G1 X-8.5 Y16.15 F200
M05; Laser OFF
G0 X-8.2 Y16.25 F3000
M03; Laser ON
G1 X4.3 Y16.25 F200
M05; Laser OFF
G0 X4.0 Y16.35 F3000
M03; Laser ON
G1 X-7.8 Y16.35 F200
M05; Laser OFF
G0 X-7.5 Y16.45 F3000
M03; Laser ON
G1 X3.6 Y16.45 F200
M05; Laser OFF
G0 X3.2 Y16.55 F3000
M03; Laser ON
G1 X-7.0 Y16.55 F200
M05; Laser OFF
G0 X-6.6 Y16.65 F3000
M03; Laser ON
G1 X2.7 Y16.65 F200
M05; Laser OFF
G0 X2.2 Y16.75 F3000
M03; Laser ON
G1 X-6.1 Y16.75 F200
M05; Laser OFF
G0 X-5.4 Y16.85 F3000
M03; Laser ON
G1 X1.5 Y16.85 F200
M05; Laser OFF
G0 X0.7 Y16.95 F3000
M03; Laser ON
G1 X-4.7 Y16.95 F200
M05; Laser OFF
G0 X-3.5 Y17.05 F3000
M03; Laser ON
G1 X-0.4 Y17.05 F200
M05; Laser OFF
M05; Laser OFF
G28; home all axes
